!!!!SEGMENT: pl-wtm--r-1569_stefani-jozef--ave-maria.krn
!!!cenid: 18xx:2903
!!!COM: Stefani, Józef
!!!COM-rismid: pe30024097
!!!CDT: 1800/04/16-1876/03/19
!!!CNT: Polish
!!!OTL: Ave Maria
!!!PDT:
!!!AGN: Sacred
!!!SMS-siglum: PL-Wtm
!!!SMS-shelfmark: R 1569
!!!SMS-shelfwork: W
!!!SMS-variant:
!!!SMS-altvar:
!!!NIFC-rismid: 1001115413
!!!URL-scan: http://repozytorium.nifc.pl/skany/pl-wtm-nut--r1569
!!!ONB-nifc:
!!!OMD: Andante
**kern	**dynam	**kern	**dynam	**kern	**text	**dynam	**kern	**dynam	**kern	**dynam	**kern	**text	**dynam	**kern	**text	**dynam	**kern	**dynam	**kern	**dynam	**kern	**dynam	**kern	**dynam	**kern	**dynam	**kern	**dynam	**kern	**dynam	**kern	**dynam	**kern	**dynam
*group3	*	*group3	*	*group5	*	*	*group5	*	*group5	*	*group5	*	*	*group4	*	*	*group3	*	*group3	*	*group3	*	*group3	*	*group1	*	*group2	*	*group1	*	*group1	*	*group1	*
*part16	*part16	*part15	*part15	*part14	*part14	*part14	*part13	*part13	*part12	*part12	*part11	*part11	*part11	*part10	*part10	*part10	*part9	*part9	*part8	*part8	*part7	*part7	*part6	*part6	*part5	*part5	*part4	*part4	*part3	*part3	*part2	*part2	*part1	*part1
*staff16	*	*staff15	*	*staff14	*staff14	*	*staff13	*	*staff12	*	*staff11	*staff11	*	*staff10	*staff10	*	*staff9	*	*staff8	*	*staff7	*	*staff6	*	*staff5	*	*staff4	*	*staff3	*	*staff2	*	*staff1	*
*	*	*	*	*	*	*	*	*	*	*	*I""Choro	*	*	*	*	*	*	*	*	*	*	*	*	*	*	*	*	*	*	*	*	*	*	*
*I"C.Bassi	*	*I"Violoncello	*	*I"Bafso	*	*	*I"Tenore	*	*I"Soprani	*	*I"Soprani	*	*	*I"Solo voce	*	*	*I"Viole	*	*I"Violino 2do	*	*I"Violino Io	*	*I"Violino solo	*	*I"Fagotti	*	*I"in F Corni	*	*I"in C Clarinetti	*	*I"Oboe	*	*I"Flauto	*
*clefF4	*	*clefF4	*	*clefF4	*	*	*clefC4	*	*clefG2	*	*clefG2	*	*	*clefG2	*	*	*clefC3	*	*clefG2	*	*clefG2	*	*clefG2	*	*clefF4	*	*clefG2	*	*clefG2	*	*clefG2	*	*clefG2	*
*ITrd0c0	*	*	*	*	*	*	*	*	*	*	*	*	*	*	*	*	*	*	*	*	*	*	*	*	*	*	*ITrd4c7	*	*	*	*	*	*	*
*k[b-]	*	*k[b-]	*	*k[b-]	*	*	*k[b-]	*	*k[b-]	*	*k[b-]	*	*	*k[b-]	*	*	*k[b-]	*	*k[b-]	*	*k[b-]	*	*k[b-]	*	*k[b-]	*	*k[b-]	*	*k[b-]	*	*k[b-]	*	*k[b-]	*
*M3/4	*	*M3/4	*	*M3/4	*	*	*M3/4	*	*M3/4	*	*M3/4	*	*	*M3/4	*	*	*M3/4	*	*M3/4	*	*M3/4	*	*M3/4	*	*M3/4	*	*M3/4	*	*M3/4	*	*M3/4	*	*M3/4	*
*>[A,B,B1,B,B2,C]	*	*>[A,B,B1,B,B2,C]	*	*>[A,B,B1,B,B2,C]	*	*	*>[A,B,B1,B,B2,C]	*	*>[A,B,B1,B,B2,C]	*	*>[A,B,B1,B,B2,C]	*	*	*>[A,B,B1,B,B2,C]	*	*	*>[A,B,B1,B,B2,C]	*	*>[A,B,B1,B,B2,C]	*	*>[A,B,B1,B,B2,C]	*	*>[A,B,B1,B,B2,C]	*	*>[A,B,B1,B,B2,C]	*	*>[A,B,B1,B,B2,C]	*	*>[A,B,B1,B,B2,C]	*	*>[A,B,B1,B,B2,C]	*	*>[A,B,B1,B,B2,C]	*
=1	=1	=1	=1	=1	=1	=1	=1	=1	=1	=1	=1	=1	=1	=1	=1	=1	=1	=1	=1	=1	=1	=1	=1	=1	=1	=1	=1	=1	=1	=1	=1	=1	=1	=1
*>A	*	*>A	*	*>A	*	*	*>A	*	*>A	*	*>A	*	*	*>A	*	*	*>A	*	*>A	*	*>A	*	*>A	*	*>A	*	*>A	*	*>A	*	*>A	*	*>A	*
*all\right	*	*all\right	*	*all\right	*	*	*all\right	*	*all\right	*	*all\right	*	*	*all\right	*	*	*all\right	*	*all\right	*	*all\right	*	*all\right	*	*all\right	*	*all\right	*	*all\right	*	*all\right	*	*all\right	*
!LO:TX:t=P:problem:all\right:global	!	!LO:TX:t=P:problem:all\right:global	!	!LO:TX:t=P:problem:all\right:global	!	!	!LO:TX:t=P:problem:all\right:global	!	!LO:TX:t=P:problem:all\right:global	!	!LO:TX:t=P:problem:all\right:global	!	!	!LO:TX:t=P:problem:all\right:global	!	!	!LO:TX:t=P:problem:all\right:global	!	!LO:TX:t=P:problem:all\right:global	!	!LO:TX:t=P:problem:all\right:global	!	!LO:TX:t=P:problem:all\right:global	!	!LO:TX:t=P:problem:all\right:global	!	!LO:TX:t=P:problem:all\right:global	!	!LO:TX:t=P:problem:all\right:global	!	!LO:TX:t=P:problem:all\right:global	!	!LO:TX:t=P:problem:all\right:global	!
!	!	!LO:TX:t=P:problem:w taktach 1-5 powtórka partii cb	!	!	!	!	!	!	!	!	!	!	!	!	!	!	!	!	!	!	!	!	!	!	!	!	!	!	!	!	!	!	!	!
.	.	.	.	.	.	.	.	.	.	.	.	.	.	.	.	.	.	.	.	.	.	.	(<8qa/	.	.	.	.	.	.	.	.	.	.	.
*	*	*	*	*	*	*	*	*	*	*	*	*	*	*	*	*	*	*	*	*	*	*	*	*	*	*	*^	*	*	*	*	*	*	*
8F\	p	8F\yy	p	2.r	.	.	2.r	.	2.r	.	2.r	.	.	2.r	.	.	8r	.	8r	.	8r	p	8.aa\L)	.	2.r	.	8.a'>/L	2.r	.	2.r	.	2.r	.	2.r	.
8r	.	8ryy	.	.	.	.	.	.	.	.	.	.	.	.	.	.	8f\	.	8c/	.	8a/	.	.	.	.	.	.	.	.	.	.	.	.	.	.
.	.	.	.	.	.	.	.	.	.	.	.	.	.	.	.	.	.	.	.	.	.	.	(>16aa\Jk'>	.	.	.	(>16a/Jk	.	.	.	.	.	.	.	.
8AA/	.	8AA/yy	.	.	.	.	.	.	.	.	.	.	.	.	.	.	8r	.	8r	.	8r	.	4ff\)	.	.	.	4f/)	.	.	.	.	.	.	.	.
8r	.	8ryy	.	.	.	.	.	.	.	.	.	.	.	.	.	.	8F/	.	8c/	.	8f/	.	.	.	.	.	.	.	.	.	.	.	.	.	.
8BB-/	.	8BB-/yy	.	.	.	.	.	.	.	.	.	.	.	.	.	.	8r	.	8r	.	8r	.	4gg\	.	.	.	4g'>/	.	.	.	.	.	.	.	.
8r	.	8ryy	.	.	.	.	.	.	.	.	.	.	.	.	.	.	8B-/	.	8d/	.	8g/	.	.	.	.	.	.	.	.	.	.	.	.	.	.
=2	=2	=2	=2	=2	=2	=2	=2	=2	=2	=2	=2	=2	=2	=2	=2	=2	=2	=2	=2	=2	=2	=2	=2	=2	=2	=2	=2	=2	=2	=2	=2	=2	=2	=2	=2
8C/	.	8C/yy	.	2.r	.	.	2.r	.	2.r	.	2.r	.	.	2.r	.	.	8r	.	8r	.	8r	.	(>4.ccT>\	.	2.r	.	(>4.c/	2.r	.	2.r	.	2.r	.	2.r	.
8r	.	8ryy	.	.	.	.	.	.	.	.	.	.	.	.	.	.	8G/	.	8B-/	.	8c/	.	.	.	.	.	.	.	.	.	.	.	.	.	.
8C/	.	8C/yy	.	.	.	.	.	.	.	.	.	.	.	.	.	.	8r	.	8r	.	8r	.	.	.	.	.	.	.	.	.	.	.	.	.	.
8r	.	8ryy	.	.	.	.	.	.	.	.	.	.	.	.	.	.	8G/	.	8B-/	.	8c/	.	16dd\LL	.	.	.	16d/LL	.	.	.	.	.	.	.	.
.	.	.	.	.	.	.	.	.	.	.	.	.	.	.	.	.	.	.	.	.	.	.	16ee\JJ)	.	.	.	16e/JJ	.	.	.	.	.	.	.	.
8F\	.	8F\yy	.	.	.	.	.	.	.	.	.	.	.	.	.	.	8r	.	8r	.	8r	.	4ff\	.	.	.	4f/)	.	.	.	.	.	.	.	.
8r	.	8ryy	.	.	.	.	.	.	.	.	.	.	.	.	.	.	8F/	.	8A/	.	8c/	.	.	.	.	.	.	.	.	.	.	.	.	.	.
*	*	*	*	*	*	*	*	*	*	*	*	*	*	*	*	*	*	*	*	*	*	*	*	*	*	*	*v	*v	*	*	*	*	*	*	*
=3	=3	=3	=3	=3	=3	=3	=3	=3	=3	=3	=3	=3	=3	=3	=3	=3	=3	=3	=3	=3	=3	=3	=3	=3	=3	=3	=3	=3	=3	=3	=3	=3	=3	=3
*	*	*	*	*	*	*	*	*	*	*	*	*	*	*	*	*	*	*	*	*	*	*	*	*	*	*	*	*	*^	*	*	*	*	*
*	*	*	*	*	*	*	*	*	*	*	*	*	*	*	*	*	*	*	*	*	*	*	*	*	*	*	*	*	*	*2\right	*	*	*	*	*
!	!	!	!	!	!	!	!	!	!	!	!	!	!	!	!	!	!	!	!	!	!	!	!	!	!	!	!	!LO:DY:rj	!	!	!LO:DY:rj	!	!	!	!
8C/	.	8C/yy	.	2.r	.	.	2.r	.	2.r	.	2.r	.	.	2.r	.	.	8r	.	8r	.	8r	.	(>[>4gg\	.	2.r	.	(>2c/ 2g	p	(>2e/	2.c\	p	2.r	.	2.r	.
8r	.	8ryy	.	.	.	.	.	.	.	.	.	.	.	.	.	.	8G/	.	8c/	.	8e/	.	.	.	.	.	.	.	.	.	.	.	.	.	.
!	!	!	!	!	!	!	!	!	!	!	!	!	!	!	!	!	!	!	!	!	!	!	!LO:TUP:a	!	!	!	!	!	!	!	!	!	!	!	!
8C/	.	8C/yy	.	.	.	.	.	.	.	.	.	.	.	.	.	.	8r	.	8r	.	8r	.	12gg\L]	.	.	.	.	.	.	.	.	.	.	.	.
.	.	.	.	.	.	.	.	.	.	.	.	.	.	.	.	.	.	.	.	.	.	.	12ff#X\	.	.	.	.	.	.	.	.	.	.	.	.
8r	.	8ryy	.	.	.	.	.	.	.	.	.	.	.	.	.	.	8G/	.	8c/	.	8e/	.	.	.	.	.	.	.	.	.	.	.	.	.	.
.	.	.	.	.	.	.	.	.	.	.	.	.	.	.	.	.	.	.	.	.	.	.	12gg\J	.	.	.	.	.	.	.	.	.	.	.	.
.	.	.	.	.	.	.	.	.	.	.	.	.	.	.	.	.	.	.	.	.	.	.	8qbb-/	.	.	.	.	.	.	.	.	.	.	.	.
!	!	!	!	!	!	!	!	!	!	!	!	!	!	!	!	!	!	!	!	!	!	!	!LO:TUP:a	!	!	!	!	!	!	!	!	!	!	!	!
8C/	.	8C/yy	.	.	.	.	.	.	.	.	.	.	.	.	.	.	8r	.	8r	.	8r	.	12aa\L	.	.	.	4f\) 4a	.	4f/	.	.	.	.	.	.
.	.	.	.	.	.	.	.	.	.	.	.	.	.	.	.	.	.	.	.	.	.	.	12gg#X\	.	.	.	.	.	.	.	.	.	.	.	.
8r	.	8ryy	.	.	.	.	.	.	.	.	.	.	.	.	.	.	8A/	.	8c/	.	8f/	.	.	.	.	.	.	.	.	.	.	.	.	.	.
.	.	.	.	.	.	.	.	.	.	.	.	.	.	.	.	.	.	.	.	.	.	.	12aa\J)	.	.	.	.	.	.	.	.	.	.	.	.
*	*	*	*	*	*	*	*	*	*	*	*	*	*	*	*	*	*	*	*	*	*	*	*	*	*	*	*	*	*v	*v	*	*	*	*	*
!!LO:PB:g=original
=4	=4	=4	=4	=4	=4	=4	=4	=4	=4	=4	=4	=4	=4	=4	=4	=4	=4	=4	=4	=4	=4	=4	=4	=4	=4	=4	=4	=4	=4	=4	=4	=4	=4	=4
!	!	!	!	!	!	!	!	!	!	!	!	!	!	!	!	!	!	!	!	!	!	!	!	!	!	!	!	!	!LO:TX:t=P:problem:brak zakończenia łuku	!	!	!	!	!
8C/	.	8C/yy	.	2.r	.	.	2.r	.	2.r	.	2.r	.	.	2.r	.	.	8r	.	8r	.	8r	.	(>8.ccc\L	.	2.r	.	4.c/ 4.g	.	4.c/) 4.e	.	2.r	.	2.r	.
8r	.	8ryy	.	.	.	.	.	.	.	.	.	.	.	.	.	.	8G/	.	8c/	.	8e/	.	.	.	.	.	.	.	.	.	.	.	.	.
.	.	.	.	.	.	.	.	.	.	.	.	.	.	.	.	.	.	.	.	.	.	.	16bb-\Jk	.	.	.	.	.	.	.	.	.	.	.
*rep	*	*	*	*	*	*	*	*	*	*	*	*	*	*	*	*	*rep	*	*rep	*	*rep	*	*	*	*	*	*	*	*	*	*	*	*	*
8C/	.	8C/yy	.	.	.	.	.	.	.	.	.	.	.	.	.	.	8r	.	8r	.	8r	.	8gg\)	.	.	.	.	.	.	.	.	.	.	.
8r	.	8ryy	.	.	.	.	.	.	.	.	.	.	.	.	.	.	8G/	.	8c/	.	8e/	.	8r	.	.	.	8r	.	8r	.	.	.	.	.
*Xrep	*	*	*	*	*	*	*	*	*	*	*	*	*	*	*	*	*Xrep	*	*Xrep	*	*Xrep	*	*	*	*	*	*	*	*	*	*	*	*	*
*rep	*	*	*	*	*	*	*	*	*	*	*	*	*	*	*	*	*rep	*	*rep	*	*rep	*	*	*	*	*	*	*	*	*	*	*	*	*
8C/	.	8C/yy	.	.	.	.	.	.	.	.	.	.	.	.	.	.	8r	.	8r	.	8r	.	4gg\	.	.	.	4r	.	4r	.	.	.	.	.
8r	.	8ryy	.	.	.	.	.	.	.	.	.	.	.	.	.	.	8G/	.	8c/	.	8e/	.	.	.	.	.	.	.	.	.	.	.	.	.
*Xrep	*	*	*	*	*	*	*	*	*	*	*	*	*	*	*	*	*Xrep	*	*Xrep	*	*Xrep	*	*	*	*	*	*	*	*	*	*	*	*	*
=5	=5	=5	=5	=5	=5	=5	=5	=5	=5	=5	=5	=5	=5	=5	=5	=5	=5	=5	=5	=5	=5	=5	=5	=5	=5	=5	=5	=5	=5	=5	=5	=5	=5	=5
*	*	*	*	*	*	*	*	*	*	*	*	*	*	*	*	*	*	*	*	*	*	*	*	*	*	*	*^	*	*	*	*	*	*	*
4D/	.	4D/yy	.	2.r	.	.	2.r	.	2.r	.	2.r	.	.	2.r	.	.	8r	.	8r	.	8r	.	(>16ff\LL	.	4r	.	4r	2ryy	.	4r	.	4r	.	4r	.
.	.	.	.	.	.	.	.	.	.	.	.	.	.	.	.	.	.	.	.	.	.	.	32gg\L	.	.	.	.	.	.	.	.	.	.	.	.
.	.	.	.	.	.	.	.	.	.	.	.	.	.	.	.	.	.	.	.	.	.	.	32aa\	.	.	.	.	.	.	.	.	.	.	.	.
.	.	.	.	.	.	.	.	.	.	.	.	.	.	.	.	.	8F/L	.	8A/L	.	8f/L	<	32bb-\	.	.	.	.	.	.	.	.	.	.	.	.
.	.	.	.	.	.	.	.	.	.	.	.	.	.	.	.	.	.	.	.	.	.	.	32ccc\	.	.	.	.	.	.	.	.	.	.	.	.
.	.	.	.	.	.	.	.	.	.	.	.	.	.	.	.	.	.	.	.	.	.	.	32ddd\	.	.	.	.	.	.	.	.	.	.	.	.
.	.	.	.	.	.	.	.	.	.	.	.	.	.	.	.	.	.	.	.	.	.	.	32eee\JJJ	.	.	.	.	.	.	.	.	.	.	.	.
4D/	.	4D/yy	.	.	.	.	.	.	.	.	.	.	.	.	.	.	8F/	.	8A/	.	8f/	.	4fff\)	.	4r	.	4r	.	.	4r	.	4r	.	4r	.
.	.	.	.	.	.	.	.	.	.	.	.	.	.	.	.	.	8F/J	.	8A/J	.	8f/J	[	.	.	.	.	.	.	.	.	.	.	.	.	.
4D-X/	sf	4D-X/yy	sf y	.	.	.	.	.	.	.	.	.	.	.	.	.	4G/	.	4Bn/	sf	4f/	sf	4bbn\	sf	(>4D-X\ (>4d-X	sf	4g/	4g\	sf	(>4bn\ (>4ff	sf	[>4gg\	sf	(>4bbn^<\	sf
*	*	*	*	*	*	*	*	*	*	*	*	*	*	*	*	*	*	*	*	*	*	*	*	*	*	*	*v	*v	*	*	*	*	*	*	*
=6	=6	=6	=6	=6	=6	=6	=6	=6	=6	=6	=6	=6	=6	=6	=6	=6	=6	=6	=6	=6	=6	=6	=6	=6	=6	=6	=6	=6	=6	=6	=6	=6	=6	=6
*	*	*	*	*	*	*	*	*	*	*	*	*	*	*	*	*	*	*	*tremolo	*	*tremolo	*	*	*	*	*	*	*	*	*	*	*	*	*
!	!	!	!LO:DY:rj	!	!	!	!	!	!	!	!	!	!	!	!	!	!	!LO:DY:rj	!	!	!	!LO:DY:rj	!	!	!	!	!	!LO:DY:rj	!	!	!	!	!	!
4C/	.	[<2.CC/ [>2.GG	p	2.r	.	.	2.r	.	2.r	.	2.r	.	.	2.r	.	.	[<2.C/ [>2.G	p	(>8c/L	.	(<8e/L	p	(>16ccc\LL	.	8C\) 8c)	.	2.C/ [>2.g/	p	8cc\) 8ee)\	.	8gg\]	.	8ccc\)	.
.	.	.	.	.	.	.	.	.	.	.	.	.	.	.	.	.	.	.	.	.	.	.	16gg\)	.	.	.	.	.	.	.	.	.	.	.
.	.	.	.	.	.	.	.	.	.	.	.	.	.	.	.	.	.	.	8G/	.	8g/	.	16ee'>\	.	8r	.	.	.	8r	.	8r	.	8r	.
.	.	.	.	.	.	.	.	.	.	.	.	.	.	.	.	.	.	.	.	.	.	.	16gg'>\JJ	.	.	.	.	.	.	.	.	.	.	.
4r	.	.	.	.	.	.	.	.	.	.	.	.	.	.	.	.	.	.	8c/	.	8e/	.	(>16ccc\LL	.	4r	.	.	.	4r	.	4r	.	4r	.
.	.	.	.	.	.	.	.	.	.	.	.	.	.	.	.	.	.	.	.	.	.	.	16eee\)	.	.	.	.	.	.	.	.	.	.	.
.	.	.	.	.	.	.	.	.	.	.	.	.	.	.	.	.	.	.	8G/J)	.	8g/J)	.	16ddd'>\	.	.	.	.	.	.	.	.	.	.	.
.	.	.	.	.	.	.	.	.	.	.	.	.	.	.	.	.	.	.	.	.	.	.	16ccc'>\JJ	.	.	.	.	.	.	.	.	.	.	.
*	*	*	*	*	*	*	*	*	*	*	*	*	*	*	*	*	*	*	*Xtremolo	*	*Xtremolo	*	*	*	*	*	*	*	*	*	*	*	*	*
!LO:TX:b:t=pizz:rj	!	!	!	!	!	!	!	!	!	!	!	!	!	!	!	!	!	!	!	!	!	!	!	!	!	!LO:DY:rj	!	!	!	!LO:DY:rj	!	!LO:DY:rj	!	!LO:DY:rj
4C/	.	.	.	.	.	.	.	.	.	.	.	.	.	.	.	.	.	.	(>8d/L	.	(<8f/L	.	(>16bbn\LL	.	[<4C/	p	.	.	(>4dd\ 4ff\	p	[>4gg\	p	(>4bbn\	p
.	.	.	.	.	.	.	.	.	.	.	.	.	.	.	.	.	.	.	.	.	.	.	16fff\)	.	.	.	.	.	.	.	.	.	.	.
.	.	.	.	.	.	.	.	.	.	.	.	.	.	.	.	.	.	.	8G/J)	.	8g/J)	.	16ddd'>\	.	.	.	.	.	.	.	.	.	.	.
.	.	.	.	.	.	.	.	.	.	.	.	.	.	.	.	.	.	.	.	.	.	.	16bb'>\JJ	.	.	.	.	.	.	.	.	.	.	.
=7	=7	=7	=7	=7	=7	=7	=7	=7	=7	=7	=7	=7	=7	=7	=7	=7	=7	=7	=7	=7	=7	=7	=7	=7	=7	=7	=7	=7	=7	=7	=7	=7	=7	=7
*	*	*	*	*	*	*	*	*	*	*	*	*	*	*	*	*	*	*	*rep	*	*rep	*	*	*	*	*	*	*	*	*	*	*	*	*
*	*	*	*	*	*	*	*	*	*	*	*	*	*	*	*	*	*	*	*tremolo	*	*tremolo	*	*	*	*	*	*	*	*	*	*	*	*	*
!	!	!LO:TX:t=P:problem:brak rozpoczęcia ligatur	!	!	!	!	!	!	!	!	!	!	!	!	!	!	!LO:TX:t=P:problem:brak rozpoczęcia ligatur	!	!	!	!	!	!	!	!	!	!	!LO:TX:t=P:problem:brak rozpoczęcia ligatur	!	!	!	!	!	!
4C/	.	2.CC/_< 2.GG_>/	.	2.r	.	.	2.r	.	2.r	.	2.r	.	.	2.r	.	.	2.C/_< 2.G_>	.	(>8c/L	.	(<8e/L	p y	(16ccc\LL	.	8C/]	.	[<2.C/ 2.g_>/	.	8cc\) 8ee\	.	8gg\]	.	8ccc\)	.
.	.	.	.	.	.	.	.	.	.	.	.	.	.	.	.	.	.	.	.	.	.	.	16gg\)	.	.	.	.	.	.	.	.	.	.	.
.	.	.	.	.	.	.	.	.	.	.	.	.	.	.	.	.	.	.	8G/	.	8g/	.	16ee'>\	.	8r	.	.	.	8r	.	8r	.	8r	.
.	.	.	.	.	.	.	.	.	.	.	.	.	.	.	.	.	.	.	.	.	.	.	16gg'>\JJ	.	.	.	.	.	.	.	.	.	.	.
4r	.	.	.	.	.	.	.	.	.	.	.	.	.	.	.	.	.	.	8c/	.	8e/	.	(>16ccc\LL	.	4r	.	.	.	4r	.	4r	.	4r	.
.	.	.	.	.	.	.	.	.	.	.	.	.	.	.	.	.	.	.	.	.	.	.	16eee\)	.	.	.	.	.	.	.	.	.	.	.
.	.	.	.	.	.	.	.	.	.	.	.	.	.	.	.	.	.	.	8G/J)	.	8g/J)	.	16ddd'>\	.	.	.	.	.	.	.	.	.	.	.
.	.	.	.	.	.	.	.	.	.	.	.	.	.	.	.	.	.	.	.	.	.	.	16ccc'>\JJ	.	.	.	.	.	.	.	.	.	.	.
*	*	*	*	*	*	*	*	*	*	*	*	*	*	*	*	*	*	*	*Xtremolo	*	*Xtremolo	*	*	*	*	*	*	*	*	*	*	*	*	*
!	!	!	!	!	!	!	!	!	!	!	!	!	!	!	!	!	!	!	!	!	!	!	!	!	!	!	!	!	!LO:TX:t=P:problem:brak początku dolnego łuku	!	!	!	!	!
4C/	.	.	.	.	.	.	.	.	.	.	.	.	.	.	.	.	.	.	(>8d/L	.	(<8f/L	.	(>16bbn\LL	.	[<4C/	.	.	.	(<4dd\ (>4ff\	.	(>4gg\	.	(>4bbn\	.
.	.	.	.	.	.	.	.	.	.	.	.	.	.	.	.	.	.	.	.	.	.	.	16fff\)	.	.	.	.	.	.	.	.	.	.	.
.	.	.	.	.	.	.	.	.	.	.	.	.	.	.	.	.	.	.	8G/J)	.	8g/J)	.	16ddd'>\	.	.	.	.	.	.	.	.	.	.	.
.	.	.	.	.	.	.	.	.	.	.	.	.	.	.	.	.	.	.	.	.	.	.	16bb'>\JJ	.	.	.	.	.	.	.	.	.	.	.
*	*	*	*	*	*	*	*	*	*	*	*	*	*	*	*	*	*	*	*Xrep	*	*Xrep	*	*	*	*	*	*	*	*	*	*	*	*	*
!!LO:PB:g=original
=8	=8	=8	=8	=8	=8	=8	=8	=8	=8	=8	=8	=8	=8	=8	=8	=8	=8	=8	=8	=8	=8	=8	=8	=8	=8	=8	=8	=8	=8	=8	=8	=8	=8	=8
*	*	*	*	*	*	*	*	*	*	*	*	*	*	*	*	*	*	*	*	*	*	*	*	*	*	*	*	*	*^	*	*	*	*	*
8C/	.	8CC/] 8GG]/	.	2.r	.	.	2.r	.	2.r	.	2.r	.	.	2.r	.	.	8C/] 8G]	.	8c/	.	8e/	.	(>16ccc\LL	.	8C/]	.	8C/] 8g]/	.	8ee/))	8cc\	.	8gg\)	.	8ccc\)	.
.	.	.	.	.	.	.	.	.	.	.	.	.	.	.	.	.	.	.	.	.	.	.	16bbn\)	.	.	.	.	.	.	.	.	.	.	.	.
8r	.	8r	.	.	.	.	.	.	.	.	.	.	.	.	.	.	8r	.	8r	.	8r	.	16ddd\	.	8r	.	8r	.	8r	8ryy	.	8r	.	8r	.
.	.	.	.	.	.	.	.	.	.	.	.	.	.	.	.	.	.	.	.	.	.	.	16ccc\JJ	.	.	.	.	.	.	.	.	.	.	.	.
4r	.	4r	.	.	.	.	.	.	.	.	.	.	.	.	.	.	4r	.	4r	.	4r	.	16bb-X\LL	.	4r	.	4r	.	4r	2ryy	.	4r	.	4r	.
.	.	.	.	.	.	.	.	.	.	.	.	.	.	.	.	.	.	.	.	.	.	.	16aa\	.	.	.	.	.	.	.	.	.	.	.	.
.	.	.	.	.	.	.	.	.	.	.	.	.	.	.	.	.	.	.	.	.	.	.	16gg\	.	.	.	.	.	.	.	.	.	.	.	.
.	.	.	.	.	.	.	.	.	.	.	.	.	.	.	.	.	.	.	.	.	.	.	16ff\JJ	.	.	.	.	.	.	.	.	.	.	.	.
4r	.	4r	.	.	.	.	.	.	.	.	.	.	.	.	.	.	4r	.	4r	.	4r	.	16ee\LL	.	4r	.	4r	.	4r	.	.	4r	.	4r	.
.	.	.	.	.	.	.	.	.	.	.	.	.	.	.	.	.	.	.	.	.	.	.	16dd\	.	.	.	.	.	.	.	.	.	.	.	.
.	.	.	.	.	.	.	.	.	.	.	.	.	.	.	.	.	.	.	.	.	.	.	16cc\	.	.	.	.	.	.	.	.	.	.	.	.
.	.	.	.	.	.	.	.	.	.	.	.	.	.	.	.	.	.	.	.	.	.	.	16bn\JJ	.	.	.	.	.	.	.	.	.	.	.	.
*	*	*	*	*	*	*	*	*	*	*	*	*	*	*	*	*	*	*	*	*	*	*	*	*	*	*	*	*	*v	*v	*	*	*	*	*
=9	=9	=9	=9	=9	=9	=9	=9	=9	=9	=9	=9	=9	=9	=9	=9	=9	=9	=9	=9	=9	=9	=9	=9	=9	=9	=9	=9	=9	=9	=9	=9	=9	=9	=9
2.r;>	.	2.r;>	.	2.r;>	.	.	2.r;>	.	2.r;>	.	2.r;>	.	.	2.r;>	.	.	2.r;>	.	2.r;>	.	2.r;>	.	16b-X/LL	.	2.r;>	.	2.r;>	.	2.r;>	.	2.r;>	.	2.r;>	.
.	.	.	.	.	.	.	.	.	.	.	.	.	.	.	.	.	.	.	.	.	.	.	16a/	.	.	.	.	.	.	.	.	.	.	.
.	.	.	.	.	.	.	.	.	.	.	.	.	.	.	.	.	.	.	.	.	.	.	16g/	.	.	.	.	.	.	.	.	.	.	.
.	.	.	.	.	.	.	.	.	.	.	.	.	.	.	.	.	.	.	.	.	.	.	16f/JJ	.	.	.	.	.	.	.	.	.	.	.
.	.	.	.	.	.	.	.	.	.	.	.	.	.	.	.	.	.	.	.	.	.	.	16e/LL	.	.	.	.	.	.	.	.	.	.	.
.	.	.	.	.	.	.	.	.	.	.	.	.	.	.	.	.	.	.	.	.	.	.	16c/	.	.	.	.	.	.	.	.	.	.	.
.	.	.	.	.	.	.	.	.	.	.	.	.	.	.	.	.	.	.	.	.	.	.	16Bn/	.	.	.	.	.	.	.	.	.	.	.
.	.	.	.	.	.	.	.	.	.	.	.	.	.	.	.	.	.	.	.	.	.	.	16c/JJ	.	.	.	.	.	.	.	.	.	.	.
.	.	.	.	.	.	.	.	.	.	.	.	.	.	.	.	.	.	.	.	.	.	.	16d^<;>/LL	.	.	.	.	.	.	.	.	.	.	.
.	.	.	.	.	.	.	.	.	.	.	.	.	.	.	.	.	.	.	.	.	.	.	16e^<;>/	.	.	.	.	.	.	.	.	.	.	.
.	.	.	.	.	.	.	.	.	.	.	.	.	.	.	.	.	.	.	.	.	.	.	16f^<;>/	.	.	.	.	.	.	.	.	.	.	.
.	.	.	.	.	.	.	.	.	.	.	.	.	.	.	.	.	.	.	.	.	.	.	16g^<;>/JJ	.	.	.	.	.	.	.	.	.	.	.
=10	=10	=10	=10	=10	=10	=10	=10	=10	=10	=10	=10	=10	=10	=10	=10	=10	=10	=10	=10	=10	=10	=10	=10	=10	=10	=10	=10	=10	=10	=10	=10	=10	=10	=10
!	!LO:DY:rj	!LO:TX:t=P:problem:w taktach 10-35 powtórka partii cb	!LO:DY:rj	!	!	!	!	!	!	!	!	!	!	!	!	!	!	!	!	!	!	!	!	!	!	!	!	!	!	!	!	!	!	!
8F\	p	8F\yy	p y	2.r	.	.	2.r	.	2.r	.	2.r	.	.	8.a/	Zdro-	.	8r	p	8r	.	8r	p	8ryy	p y	2.r	.	2.r	.	2.r	.	2.r	.	2.r	.
8r	.	8ryy	.	.	.	.	.	.	.	.	.	.	.	.	.	.	8f\	.	8c/	.	8a/	.	8a/yy	.	.	.	.	.	.	.	.	.	.	.
.	.	.	.	.	.	.	.	.	.	.	.	.	.	16a/	-waś	.	.	.	.	.	.	.	.	.	.	.	.	.	.	.	.	.	.	.
8AA/	.	8AA/yy	.	.	.	.	.	.	.	.	.	.	.	4f/	pan-	.	8r	.	8r	.	8r	.	8ryy	.	.	.	.	.	.	.	.	.	.	.
8r	.	8ryy	.	.	.	.	.	.	.	.	.	.	.	.	.	.	8A/	.	8c/	.	8f/	.	8f/yy	.	.	.	.	.	.	.	.	.	.	.
8BB-/	.	8BB-/yy	.	.	.	.	.	.	.	.	.	.	.	4g/	-no	.	8r	.	8r	.	8r	.	8ryy	.	.	.	.	.	.	.	.	.	.	.
8r	.	8ryy	.	.	.	.	.	.	.	.	.	.	.	.	.	.	8B-/	.	8d/	.	8g/	.	8g/yy	.	.	.	.	.	.	.	.	.	.	.
=11	=11	=11	=11	=11	=11	=11	=11	=11	=11	=11	=11	=11	=11	=11	=11	=11	=11	=11	=11	=11	=11	=11	=11	=11	=11	=11	=11	=11	=11	=11	=11	=11	=11	=11
8C/	.	8C/yy	.	2.r	.	.	2.r	.	2.r	.	2.r	.	.	(>4.c/	Ma-	.	8r	.	8r	.	8r	.	8ryy	.	2.r	.	2.r	.	2.r	.	2.r	.	2.r	.
8r	.	8ryy	.	.	.	.	.	.	.	.	.	.	.	.	.	.	8G/	.	8B-/	.	8c/	.	8c/yy	.	.	.	.	.	.	.	.	.	.	.
8C/	.	8C/yy	.	.	.	.	.	.	.	.	.	.	.	.	.	.	8r	.	8r	.	8r	.	8ryy	.	.	.	.	.	.	.	.	.	.	.
8r	.	8ryy	.	.	.	.	.	.	.	.	.	.	.	16d/LL)	-ry-	.	8G/	.	8B-/	.	8c/	.	8c/yy	.	.	.	.	.	.	.	.	.	.	.
.	.	.	.	.	.	.	.	.	.	.	.	.	.	16e/JJ	.	.	.	.	.	.	.	.	.	.	.	.	.	.	.	.	.	.	.	.
8F\	.	8F\yy	.	.	.	.	.	.	.	.	.	.	.	4f/	-a	.	8r	.	8r	.	8r	.	8ryy	.	.	.	.	.	.	.	.	.	.	.
8r	.	8ryy	.	.	.	.	.	.	.	.	.	.	.	.	.	.	8F/	.	8A/	.	8c/	.	8c/yy	.	.	.	.	.	.	.	.	.	.	.
!!LO:PB:g=original
=12	=12	=12	=12	=12	=12	=12	=12	=12	=12	=12	=12	=12	=12	=12	=12	=12	=12	=12	=12	=12	=12	=12	=12	=12	=12	=12	=12	=12	=12	=12	=12	=12	=12	=12
*	*	*	*	*	*	*	*	*	*	*	*	*	*	*	*	*	*	*	*	*	*	*	*	*	*	*	*	*	*^	*	*	*	*	*
!	!	!	!	!	!	!	!	!	!	!	!	!	!	!	!	!	!	!	!	!	!	!	!	!	!	!	!	!	!	!	!LO:DY:rj	!	!	!	!
8C/	.	8C/yy	.	2.r	.	.	2.r	.	2.r	.	2.r	.	.	(>[<4g/	ła-	.	8r	.	8r	.	8r	.	(>[>4gg\	.	2.r	.	2c/ 2g/	.	(>2e	2.c	p	2.r	.	2.r	.
8r	.	8ryy	.	.	.	.	.	.	.	.	.	.	.	.	.	.	8G/	.	8c/	.	8e/	.	.	.	.	.	.	.	.	.	.	.	.	.	.
*	*	*	*	*	*	*	*	*	*	*	*	*	*	*Xtuplet	*	*	*	*	*	*	*	*	*	*	*	*	*	*	*	*	*	*	*	*	*
!	!	!	!	!	!	!	!	!	!	!	!	!	!	!	!	!	!	!	!	!	!	!	!LO:TUP:a	!	!	!	!	!	!	!	!	!	!	!	!
8C/	.	8C/yy	.	.	.	.	.	.	.	.	.	.	.	12g/L]	.	.	8r	.	8r	.	8r	.	12gg\L]	.	.	.	.	.	.	.	.	.	.	.	.
.	.	.	.	.	.	.	.	.	.	.	.	.	.	12f#X/	.	.	.	.	.	.	.	.	12ff#X\	.	.	.	.	.	.	.	.	.	.	.	.
8r	.	8ryy	.	.	.	.	.	.	.	.	.	.	.	.	.	.	8G/	.	8c/	.	8e/	.	.	.	.	.	.	.	.	.	.	.	.	.	.
.	.	.	.	.	.	.	.	.	.	.	.	.	.	12g/J)	.	.	.	.	.	.	.	.	12gg\J	.	.	.	.	.	.	.	.	.	.	.	.
*	*	*	*	*	*	*	*	*	*	*	*	*	*	*	*	*	*	*	*	*	*	*	*	*	*	*	*	*	*	*	*	*	*	*	*
*	*	*	*	*	*	*	*	*	*	*	*	*	*	*	*	*	*	*	*	*	*	*	*	*	*	*	*	*	*	*	*	*	*	*	*
.	.	.	.	.	.	.	.	.	.	.	.	.	.	.	.	.	.	.	.	.	.	.	8qbb-/	.	.	.	.	.	.	.	.	.	.	.	.
!	!	!	!	!	!	!	!	!	!	!	!	!	!	!LO:TUP:a:v:problem:klamra łukowa	!	!	!	!	!	!	!	!	!LO:TUP:a	!	!	!	!	!	!	!	!	!	!	!	!
8C/	.	8C/yy	.	.	.	.	.	.	.	.	.	.	.	12a/L	-skiś	.	8r	.	8r	.	8r	.	12aa\L	.	.	.	4a 4f	.	4f)	.	.	.	.	.	.
.	.	.	.	.	.	.	.	.	.	.	.	.	.	12g#X/	.	.	.	.	.	.	.	.	12gg#X\	.	.	.	.	.	.	.	.	.	.	.	.
8r	.	8ryy	.	.	.	.	.	.	.	.	.	.	.	.	.	.	8A/	.	8c/	.	8f/	.	.	.	.	.	.	.	.	.	.	.	.	.	.
.	.	.	.	.	.	.	.	.	.	.	.	.	.	12a/J	.	.	.	.	.	.	.	.	12aa\J)	.	.	.	.	.	.	.	.	.	.	.	.
*	*	*	*	*	*	*	*	*	*	*	*	*	*	*	*	*	*	*	*	*	*	*	*	*	*	*	*	*	*	*	*	*	*	*	*
*	*	*	*	*	*	*	*	*	*	*	*	*	*	*	*	*	*	*	*	*	*	*	*	*	*	*	*	*	*v	*v	*	*	*	*	*
=13	=13	=13	=13	=13	=13	=13	=13	=13	=13	=13	=13	=13	=13	=13	=13	=13	=13	=13	=13	=13	=13	=13	=13	=13	=13	=13	=13	=13	=13	=13	=13	=13	=13	=13
8C/	.	8C/yy	.	2.r	.	.	2.r	.	2.r	.	2.r	.	.	(<8.cc/L	peł-	.	8r	.	8r	.	8r	.	(>8.ccc\L	.	2.r	.	4.g/ 4.c/	.	4.c/ 4.e/	.	2.r	.	2.r	.
8r	.	8ryy	.	.	.	.	.	.	.	.	.	.	.	.	.	.	8G/	.	8c/	.	8e/	.	.	.	.	.	.	.	.	.	.	.	.	.
.	.	.	.	.	.	.	.	.	.	.	.	.	.	16b-/Jk)	.	.	.	.	.	.	.	.	16bb-\Jk)	.	.	.	.	.	.	.	.	.	.	.
*	*	*	*	*	*	*	*	*	*	*	*	*	*	*	*	*	*rep	*	*rep	*	*rep	*	*	*	*	*	*	*	*	*	*	*	*	*
8C/	.	8C/yy	.	.	.	.	.	.	.	.	.	.	.	8g/	-na,	.	8r	.	8r	.	8r	.	8gg\	.	.	.	.	.	.	.	.	.	.	.
8r	.	8ryy	.	.	.	.	.	.	.	.	.	.	.	8r	.	.	8G/	.	8c/	.	8e/	.	8r	.	.	.	8r	.	8r	.	.	.	.	.
*	*	*	*	*	*	*	*	*	*	*	*	*	*	*	*	*	*Xrep	*	*Xrep	*	*Xrep	*	*	*	*	*	*	*	*	*	*	*	*	*
*	*	*	*	*	*	*	*	*	*	*	*	*	*	*	*	*	*rep	*	*rep	*	*rep	*	*	*	*	*	*	*	*	*	*	*	*	*
8C/	.	8C/yy	.	.	.	.	.	.	.	.	.	.	.	4g/	Pan	.	8r	.	8r	.	8r	.	4r	.	.	.	4r	.	4r	.	.	.	.	.
8r	.	8ryy	.	.	.	.	.	.	.	.	.	.	.	.	.	.	8G/	.	8c/	.	8e/	.	.	.	.	.	.	.	.	.	.	.	.	.
*	*	*	*	*	*	*	*	*	*	*	*	*	*	*	*	*	*Xrep	*	*Xrep	*	*Xrep	*	*	*	*	*	*	*	*	*	*	*	*	*
=14	=14	=14	=14	=14	=14	=14	=14	=14	=14	=14	=14	=14	=14	=14	=14	=14	=14	=14	=14	=14	=14	=14	=14	=14	=14	=14	=14	=14	=14	=14	=14	=14	=14	=14
4D\	.	4D\yy	.	2.r	.	.	2.r	.	2.r	.	2.r	.	.	4f/	z to-	.	8r	.	8r	.	8r	.	8ryy	.	4r	.	2.r	.	4r	.	2.r	.	4r	.
.	.	.	.	.	.	.	.	.	.	.	.	.	.	.	.	.	(<8A'</L	.	(<8d'</L	.	(<8f'</L	.	(<8f'</Lyy	.	.	.	.	.	.	.	.	.	.	.
8r	.	8ryy	.	.	.	.	.	.	.	.	.	.	.	8f/	-bą	.	8A'</J)	.	8d'</J)	.	8f'</J)	.	8f'</J)yy	.	8r	.	.	.	8r	.	.	.	8r	.
4.BBn^</	.	4.BBn^</yy	.	.	.	.	.	.	.	.	.	.	.	8a/	bło-	.	8F^</	.	4.d^>/	.	(<8a^>/L	.	(8a^>/Lyy	.	(>4.Bn/	.	.	.	(<4.d (>4.f^>	.	.	.	8aa'>\L	>
.	.	.	.	.	.	.	.	.	.	.	.	.	.	.	.	.	.	.	.	.	.	.	.	.	.	.	.	.	.	.	.	.	(<16qqbbn/LL	]
.	.	.	.	.	.	.	.	.	.	.	.	.	.	.	.	.	.	.	.	.	.	.	.	.	.	.	.	.	.	.	.	.	16qqaa/JJ)	.
.	.	.	.	.	.	.	.	.	.	.	.	.	.	8g/	-go-	.	4G/	.	.	.	8g/	.	8g/yy	.	.	.	.	.	.	.	.	.	8gg\	.
.	.	.	.	.	.	.	.	.	.	.	.	.	.	8f/	-sła-	.	.	.	.	.	8f/J)	.	8f/J)yy	.	.	.	.	.	.	.	.	.	8ff'>\J	.
=15	=15	=15	=15	=15	=15	=15	=15	=15	=15	=15	=15	=15	=15	=15	=15	=15	=15	=15	=15	=15	=15	=15	=15	=15	=15	=15	=15	=15	=15	=15	=15	=15	=15	=15
.	.	.	.	.	.	.	.	.	.	.	.	.	.	(<8qf/	.	.	.	.	.	.	.	.	.	.	.	.	.	.	.	.	.	.	.	.
4C/	.	4C/yy	.	2.r	.	.	2.r	.	2.r	.	2.r	.	.	4e/)	-wio-	.	8r	.	8r	.	8r	.	8ryy	.	8c)	.	2.r	.	8c) 8e)	.	2.r	.	8ee\	.
.	.	.	.	.	.	.	.	.	.	.	.	.	.	.	.	.	(<8G'</L	.	(<8c'</L	.	(<8e'</L	.	(<8e'</Lyy	.	8r	.	.	.	8r	.	.	.	8r	.
8r	.	8ryy	.	.	.	.	.	.	.	.	.	.	.	8e/	-naś	.	8G'</J)	.	8c'</J)	.	8e'</J)	.	8e'</J)yy	.	8r	.	.	.	8r	.	.	.	8r	.
4.C#X^</	.	4.C#X^</yy	.	.	.	.	.	.	.	.	.	.	.	8b-/	Ty	.	8G^</	.	4.e^>/	.	(<8b-X^>/L	.	(<8b-X^>/Lyy	.	(>/4.c#	.	.	.	(<4.e (>4.g^>	.	.	.	(>8bb-X\L	>
.	.	.	.	.	.	.	.	.	.	.	.	.	.	.	.	.	.	.	.	.	.	.	.	.	.	.	.	.	.	.	.	.	16qqccc/LL	]
.	.	.	.	.	.	.	.	.	.	.	.	.	.	.	.	.	.	.	.	.	.	.	.	.	.	.	.	.	.	.	.	.	16qqbb-/JJ	.
.	.	.	.	.	.	.	.	.	.	.	.	.	.	8a/	mię-	.	4A/	.	.	.	8a/	.	8a/yy	.	.	.	.	.	.	.	.	.	8aa\	.
.	.	.	.	.	.	.	.	.	.	.	.	.	.	8g/	-dzy	.	.	.	.	.	8g/J)	.	8g/J)yy	.	.	.	.	.	.	.	.	.	8gg\J)	.
!!LO:PB:g=original
=16	=16	=16	=16	=16	=16	=16	=16	=16	=16	=16	=16	=16	=16	=16	=16	=16	=16	=16	=16	=16	=16	=16	=16	=16	=16	=16	=16	=16	=16	=16	=16	=16	=16	=16
*	*	*	*	*	*	*	*	*	*	*	*	*	*	*	*	*	*	*	*	*	*	*	*	*	*^	*	*	*	*	*	*	*	*	*
!	!	!	!	!	!	!	!	!	!	!	!	!	!	!	!	!	!	!	!	!	!	!	!	!	!	!	!	!	!	!LO:TX:t=P:problem:brak zakończeń łuków	!	!	!	!	!
4D\	.	4D\yy	.	2.r	.	.	2.r	.	2.r	.	2.r	.	.	2f/	nie-	.	8r	.	8r	.	8r	.	8ryy	.	8d/)	2.r	.	4r	.	8d/) 8f)	.	2.r	.	8ff\	.
.	.	.	.	.	.	.	.	.	.	.	.	.	.	.	.	.	8A/L	.	8d/L	.	8f/L	.	8f/Lyy	.	8r	.	.	.	p	8r	.	.	.	8r	.
4r	.	4ryy	.	.	.	.	.	.	.	.	.	.	.	.	.	.	8A/	.	8d/	.	8f/	.	8f/yy	.	4r	.	.	(>4A/ 4f	.	4r	.	.	.	4r	.
.	.	.	.	.	.	.	.	.	.	.	.	.	.	.	.	.	8A/J	.	8d/J	.	8f/J	.	8f/Jyy	.	.	.	.	.	.	.	.	.	.	.	.
!	!	!	!	!	!	!	!	!	!	!	!	!	!	!LO:TUP:b:v:problem:klamra łukowa	!	!	!	!	!	!	!	!	!	!	!	!	!	!	!	!	!	!	!	!	!
8Cn/	.	8Cn/yy	.	.	.	.	.	.	.	.	.	.	.	12g/L	-wia-	.	8r	.	8r	.	8r	.	8ryy	.	4r	.	.	4c/ 4g	.	4r	.	.	.	4rg	.
.	.	.	.	.	.	.	.	.	.	.	.	.	.	12f/	.	.	.	.	.	.	.	.	.	.	.	.	.	.	.	.	.	.	.	.	.
8r	.	8ryy	.	.	.	.	.	.	.	.	.	.	.	.	.	.	8c\	.	8e/	.	8g/	.	8g/yy	.	.	.	.	.	.	.	.	.	.	.	.
.	.	.	.	.	.	.	.	.	.	.	.	.	.	12g/J	.	.	.	.	.	.	.	.	.	.	.	.	.	.	.	.	.	.	.	.	.
*	*	*	*	*	*	*	*	*	*	*	*	*	*	*	*	*	*	*	*	*	*	*	*	*	*v	*v	*	*	*	*	*	*	*	*	*
=17	=17	=17	=17	=17	=17	=17	=17	=17	=17	=17	=17	=17	=17	=17	=17	=17	=17	=17	=17	=17	=17	=17	=17	=17	=17	=17	=17	=17	=17	=17	=17	=17	=17	=17
*	*	*	*	*	*	*	*	*	*	*	*	*	*	*	*	*	*	*	*	*	*	*	*	*	*	*	*^	*	*	*	*	*	*	*
4F\	.	4F\yy	.	2.r	.	.	2.r	.	2.r	.	2.r	.	.	4a/	-sta-	.	8r	.	8r	.	8r	.	4r	.	2.r	.	4.a/)	4.f\	.	2.r	.	2.r	.	2.r	.
.	.	.	.	.	.	.	.	.	.	.	.	.	.	.	.	.	8c\L	.	8f/L	.	8a/L	.	.	.	.	.	.	.	.	.	.	.	.	.	.
8r	.	8ryy	.	.	.	.	.	.	.	.	.	.	.	8a/	-mi	.	8c\J	.	8f/J	.	8a/J	.	8r	.	.	.	.	.	.	.	.	.	.	.	.
(>8A\L	.	(>8A\Lyy	.	.	.	.	.	.	.	.	.	.	.	8cc\	i	.	(<8c/L	.	(<8f'</L	.	(>8cc\L	.	(>8ccc\L	.	.	.	8r	4.ryy	.	.	.	.	.	.	.
8B-\	.	8B-\yy	.	.	.	.	.	.	.	.	.	.	.	8dd\	bło-	.	8B-/	.	8f'</	.	8dd\	.	8ddd\	.	.	.	4r	.	.	.	.	.	.	.	.
8A\J)	.	8A\J)yy	.	.	.	.	.	.	.	.	.	.	.	8cc\	-go-	.	8c/J)	.	8f'</J)	.	8cc\J)	.	8ccc\J)	.	.	.	.	.	.	.	.	.	.	.	.
*	*	*	*	*	*	*	*	*	*	*	*	*	*	*	*	*	*	*	*	*	*	*	*	*	*	*	*v	*v	*	*	*	*	*	*	*
=18	=18	=18	=18	=18	=18	=18	=18	=18	=18	=18	=18	=18	=18	=18	=18	=18	=18	=18	=18	=18	=18	=18	=18	=18	=18	=18	=18	=18	=18	=18	=18	=18	=18	=18
(>4G\	.	(>4G\yy	.	2.r	.	.	2.r	.	2.r	.	2.r	.	.	(<8.cc/L	-sła-	.	(>8d\L	.	(<8d/L	.	(>8.cc\L	.	(>8.ccc\L	.	2.r	.	4r	.	2.r	.	2.r	.	2.r	.
.	.	.	.	.	.	.	.	.	.	.	.	.	.	.	.	.	8c\J)	.	8e/J	.	.	.	.	.	.	.	.	.	.	.	.	.	.	.
.	.	.	.	.	.	.	.	.	.	.	.	.	.	16b-/Jk)	.	.	.	.	.	.	16b-\Jk)	.	16bb-\Jk	.	.	.	.	.	.	.	.	.	.	.
8F\)	.	8F\)yy	.	.	.	.	.	.	.	.	.	.	.	8a/	-wion	.	8c\	.	8f/)	.	8a/	.	8aa\)	.	.	.	8r	.	.	.	.	.	.	.
.	.	.	.	.	.	.	.	.	.	.	.	.	.	.	.	.	.	.	.	.	.	.	(<8qbb-/	.	.	.	.	.	.	.	.	.	.	.
8F\L	.	8F\Lyy	.	.	.	.	.	.	.	.	.	.	.	8a/	o-	.	(>8c'>\L	.	(<8f'</L	.	(<8a'</L	.	8aa\L)	.	.	.	8f\L 8a\	.	.	.	.	.	.	.
8C\	.	8C\yy	.	.	.	.	.	.	.	.	.	.	.	8g/	-woc	.	8c'>\	.	8e'</	.	8g'</	.	8gg'>\	.	.	.	8c\ 8g\	.	.	.	.	.	.	.
8F\J	.	8F\Jyy	.	.	.	.	.	.	.	.	.	.	.	8a/	ży-	.	8c'>\J)	.	8f'</J)	.	8a'</J)	.	8aa'>\J	.	.	.	8f\J 8a\	.	.	.	.	.	.	.
=19	=19	=19	=19	=19	=19	=19	=19	=19	=19	=19	=19	=19	=19	=19	=19	=19	=19	=19	=19	=19	=19	=19	=19	=19	=19	=19	=19	=19	=19	=19	=19	=19	=19	=19
4D\	.	4D\yy	.	2.r	.	.	2.r	.	2.r	.	2.r	.	.	8f/	-wo-	.	8r	.	8r	.	8r	.	2ff\	<	2.r	.	2A/ (>2f/	<	2.r	.	2.r	.	2.r	.
.	.	.	.	.	.	.	.	.	.	.	.	.	.	8f/	-ta	.	8A/L	.	8d/L	.	8f/L	<	.	.	.	.	.	.	.	.	.	.	.	.
4r	.	4ryy	.	.	.	.	.	.	.	.	.	.	.	4f/	Twe-	.	8A/	.	8d/	.	8f/	.	.	.	.	.	.	.	.	.	.	.	.	.
.	.	.	.	.	.	.	.	.	.	.	.	.	.	.	.	.	8A/J	.	8d/J	.	8f/J	.	.	.	.	.	.	.	.	.	.	.	.	.
8C/	.	8C/yy	.	.	.	.	.	.	.	.	.	.	.	4g/	-go	.	8r	.	8r	.	8r	.	4ggT>\	[	.	.	4c/ 4g)/	[	.	.	.	.	.	.
8r	.	8ryy	.	.	.	.	.	.	.	.	.	.	.	.	.	.	8c\	.	8e/	.	8g/	[	.	.	.	.	.	.	.	.	.	.	.	.
.	.	.	.	.	.	.	.	.	.	.	.	.	.	.	.	.	.	.	.	.	.	.	(<16qqff#X/LL	.	.	.	.	.	.	.	.	.	.	.
.	.	.	.	.	.	.	.	.	.	.	.	.	.	.	.	.	.	.	.	.	.	.	16qqgg/JJ)	.	.	.	.	.	.	.	.	.	.	.
!!LO:PB:g=original
=20	=20	=20	=20	=20	=20	=20	=20	=20	=20	=20	=20	=20	=20	=20	=20	=20	=20	=20	=20	=20	=20	=20	=20	=20	=20	=20	=20	=20	=20	=20	=20	=20	=20	=20
*	*	*	*	*	*	*	*	*	*	*	*	*	*	*	*	*	*	*	*	*	*	*	*	*	*	*	*^	*	*^	*	*	*	*	*
8F\	.	8F\yy	.	2.r	.	.	2.r	.	2.r	.	2.r	.	.	4a/	Je-	.	8r	.	8r	.	8r	.	(>16aa\LL	.	4r	.	4.a/	4.f\	.	4r	4.ryy	.	4r	.	4r	.
.	.	.	.	.	.	.	.	.	.	.	.	.	.	.	.	.	.	.	.	.	.	.	16ff\	.	.	.	.	.	.	.	.	.	.	.	.	.
8r	.	8ryy	.	.	.	.	.	.	.	.	.	.	.	.	.	.	(>8c'>\L	.	(<8f'</L	.	(<8a'</L	.	16aa\	.	.	.	.	.	.	.	.	.	.	.	.	.
.	.	.	.	.	.	.	.	.	.	.	.	.	.	.	.	.	.	.	.	.	.	.	16ccc\JJ	.	.	.	.	.	.	.	.	.	.	.	.	.
8FF/	.	8FF/yy	.	.	.	.	.	.	.	.	.	.	.	4a/	-zus	.	8c'>\J)	.	8f'</J)	.	8a'</J)	.	8fff\)	.	8r	.	.	.	.	8r	.	.	8r	.	8r	.
!	!	!	!	!	!	!	!	!	!	!	!	!	!	!	!	!	!	!	!	!	!	!	!	!	!	!LO:DY:rj	!	!	!LO:DY:rj	!	!	!	!	!	!	!LO:DY:rj
(>8F\L	.	(>8F\Lyy	.	.	.	.	.	.	.	.	.	.	.	.	.	.	(>8c\L	.	(<8f/L	.	(<8a/L	.	8r	.	(>8F\L	p	4.A/ 4.a/	4.ryy	p <	[>4.a/	8f\L	.	(>8aa\L	.	(>8aa\L	p <
8E\	.	8E\yy	.	.	.	.	.	.	.	.	.	.	.	4r	.	.	8Bn\	.	8e/	.	8g/	.	4r	.	8E\	.	.	.	.	.	8g\	.	8gg\	.	8ccc#X\	.
8D\J)	.	8D\J)yy	.	.	.	.	.	.	.	.	.	.	.	.	.	.	8d\J)	.	8f/J)	.	8f/J)	.	.	.	8D\J)	.	.	.	[[	.	8f\J	.	8ff\J)	.	8ddd\J)	[[
*	*	*	*	*	*	*	*	*	*	*	*	*	*	*	*	*	*	*	*	*	*	*	*	*	*	*	*v	*v	*	*	*	*	*	*	*	*
=21	=21	=21	=21	=21	=21	=21	=21	=21	=21	=21	=21	=21	=21	=21	=21	=21	=21	=21	=21	=21	=21	=21	=21	=21	=21	=21	=21	=21	=21	=21	=21	=21	=21	=21	=21
2C#X/	.	2C#X/yy	.	2.r	.	.	2.r	.	2.r	.	2.r	.	.	4.e/	Świę-	.	8r	.	8r	.	8r	.	2.r	.	4C#X/	.	4A/ 4a/	.	4a/]	4e\	.	4ee\	.	4eee\	.
.	.	.	.	.	.	.	.	.	.	.	.	.	.	.	.	.	(<8A'</L	.	(<8e'</L	.	(<8e'</L	.	.	.	.	.	.	.	.	.	.	.	.	.	.
.	.	.	.	.	.	.	.	.	.	.	.	.	.	.	.	.	8A'</	.	8e'</	.	8e'</	.	.	.	4r	.	4r	.	4r	4ryy	.	4r	.	4r	.
.	.	.	.	.	.	.	.	.	.	.	.	.	.	8e/	-ta	.	8A'</J)	.	8e'</J)	.	8e'</J)	.	.	.	.	.	.	.	.	.	.	.	.	.	.
8D/L	.	8D/Lyy	.	.	.	.	.	.	.	.	.	.	.	8f/	Ma-	.	4A/	.	(<8d/L	.	(<8f/L	.	.	.	4r	.	4r	.	4r	4ryy	.	4r	.	4r	.
8C#/J	.	8C#/Jyy	.	.	.	.	.	.	.	.	.	.	.	8e/	-rya	.	.	.	8e/J)	.	8e/J)	.	.	.	.	.	.	.	.	.	.	.	.	.	.
=22	=22	=22	=22	=22	=22	=22	=22	=22	=22	=22	=22	=22	=22	=22	=22	=22	=22	=22	=22	=22	=22	=22	=22	=22	=22	=22	=22	=22	=22	=22	=22	=22	=22	=22	=22
8D/L	.	8D/Lyy	.	2.r	.	.	2.r	.	2.r	.	2.r	.	.	8f/	ma-	.	(<4A/	.	(<8d/L	.	(<8f/L	.	4r	.	4r	.	2.r	.	4r	4ryy	.	2.r	.	2.r	.
8Cn/J	.	8Cn/Jyy	.	.	.	.	.	.	.	.	.	.	.	8e/	-tko	.	.	.	8e/J)	.	8e/J)	.	.	.	.	.	.	.	.	.	.	.	.	.	.
8BB-X/	.	8BB-X/yy	.	.	.	.	.	.	.	.	.	.	.	4d/	ma-	.	8B-/L)	.	8d/L	.	8d/L	.	4r	.	4r	.	.	.	4r	4ryy	.	.	.	.	.
8r	.	8ryy	.	.	.	.	.	.	.	.	.	.	.	.	.	.	8B-'</J	.	8d'</J	.	8d'</J	.	.	.	.	.	.	.	.	.	.	.	.	.	.
!	!LO:HP:a	!	!LO:HP:a	!	!	!	!	!	!	!	!	!	!	!	!	!	!	!	!	!	!	!	!	!	!	!	!	!	!	!	!LO:HP:a	!	!	!	!
4BB-/	<[	4BB-/yy	<[	.	.	.	.	.	.	.	.	.	.	4dd\	-tko	.	8r	.	8r	.	8r	.	8r	.	(>4BB-\ (>4B-	.	.	.	(>4d/	(<4d\	<[	.	.	.	.
.	.	.	.	.	.	.	.	.	.	.	.	.	.	.	.	.	8B-'</	.	8d/	<	8dd\	<	(>8dd\	<	.	.	.	.	.	.	.	.	.	.	.
=23	=23	=23	=23	=23	=23	=23	=23	=23	=23	=23	=23	=23	=23	=23	=23	=23	=23	=23	=23	=23	=23	=23	=23	=23	=23	=23	=23	=23	=23	=23	=23	=23	=23	=23	=23
!	!LO:DY:rj	!	!LO:DY:rj	!	!	!	!	!	!	!	!	!	!	!	!	!	!	!	!	!	!	!	!	!LO:DY:rj	!	!	!	!	!	!	!LO:HP:a	!	!	!	!
4AA/	f	4AA/yy	f y	2.r	.	.	2.r	.	2.r	.	2.r	.	.	2cc#X\	Bo-	.	8r	.	8r	[	8r	[	16cc#X\LL)	[f	4AA/) 4A)	.	2.r	.	4e/)	4c#X\)	.>	2.r	.	2.r	.
.	.	.	.	.	.	.	.	.	.	.	.	.	.	.	.	.	.	.	.	.	.	.	(>16a\	.	.	.	.	.	.	.	]	.	.	.	.
!	!	!	!	!	!	!	!	!	!	!	!	!	!	!	!	!	!	!LO:DY:rj	!	!LO:DY:rj	!	!LO:DY:rj	!	!	!	!	!	!	!	!	!	!	!	!	!
.	.	.	.	.	.	.	.	.	.	.	.	.	.	.	.	.	8A/L	f	8e/L	f	8cc#X\L	f	16cc#\	.	.	.	.	.	.	.	.	.	.	.	.
.	.	.	.	.	.	.	.	.	.	.	.	.	.	.	.	.	.	.	.	.	.	.	16ee\JJ	.	.	.	.	.	.	.	.	.	.	.	.
!	!	!	!	!	!	!	!	!	!	!	!	!	!	!	!	!	!	!LO:DY:rj	!	!	!	!	!	!	!	!	!	!	!	!	!	!	!	!	!
4r	.	4ryy	.	.	.	.	.	.	.	.	.	.	.	.	.	.	8A/	p	8e/	.	8cc#\	.	8aa\)	.	4r	.	.	.	4r	4ryy	]	.	.	.	.
!	!	!	!	!	!	!	!	!	!	!	!	!	!	!	!	!	!	!	!	!LO:DY:rj	!	!LO:DY:rj	!	!	!	!	!	!	!	!	!	!	!	!	!
.	.	.	.	.	.	.	.	.	.	.	.	.	.	.	.	.	8A/J	.	8e/J	p	8cc#\J	p	8r	.	.	.	.	.	.	.	.	.	.	.	.
!	!LO:DY:rj	!	!LO:DY:rj	!	!	!	!	!	!	!	!	!	!	!	!	!	!	!	!	!	!	!	!	!	!	!	!	!	!	!	!	!	!	!	!
8A\	p	8A\yy	p y	.	.	.	.	.	.	.	.	.	.	4a/	-ża	.	8r	.	8r	.	8r	.	4r	.	4r	.	.	.	4r	4ryy	.	.	.	.	.
8r	.	8ryy	.	.	.	.	.	.	.	.	.	.	.	.	.	.	8A/	.	8c#X/ 8e	.	8a/	.	.	.	.	.	.	.	.	.	.	.	.	.	.
*	*	*	*	*	*	*	*	*	*	*	*	*	*	*	*	*	*	*	*	*	*	*	*	*	*	*	*	*	*v	*v	*	*	*	*	*
!!LO:PB:g=original
=24	=24	=24	=24	=24	=24	=24	=24	=24	=24	=24	=24	=24	=24	=24	=24	=24	=24	=24	=24	=24	=24	=24	=24	=24	=24	=24	=24	=24	=24	=24	=24	=24	=24	=24
(>2G\	.	(>2G\yy	.	2.r	.	.	2.r	.	2.r	.	2.r	.	.	4b-X/	módl	.	8r	.	8r	.	8r	.	2.r	.	2.r	.	2.r	.	2.r	.	2.r	.	2.r	.
.	.	.	.	.	.	.	.	.	.	.	.	.	.	.	.	.	8cn\L	.	8e/L	.	8b-X/L	.	.	.	.	.	.	.	.	.	.	.	.	.
.	.	.	.	.	.	.	.	.	.	.	.	.	.	4.b-/	się	.	8c\	.	8e/	.	8b-/	.	.	.	.	.	.	.	.	.	.	.	.	.
.	.	.	.	.	.	.	.	.	.	.	.	.	.	.	.	.	8c\J	.	8e/J	.	8b-/J	.	.	.	.	.	.	.	.	.	.	.	.	.
8F\)	.	8F\)yy	.	.	.	.	.	.	.	.	.	.	.	.	.	.	8r	.	8r	.	8r	.	.	.	.	.	.	.	.	.	.	.	.	.
8r	.	8ryy	.	.	.	.	.	.	.	.	.	.	.	8a/	za	.	8c\	.	8f/	.	8a/	.	.	.	.	.	.	.	.	.	.	.	.	.
=25	=25	=25	=25	=25	=25	=25	=25	=25	=25	=25	=25	=25	=25	=25	=25	=25	=25	=25	=25	=25	=25	=25	=25	=25	=25	=25	=25	=25	=25	=25	=25	=25	=25	=25
(>2B-\	.	(>2B-\yy	.	2.r	.	.	2.r	.	2.r	.	2.r	.	.	4dd\	na-	.	8r	.	8r	.	8r	.	2.r	.	2.r	.	2.r	.	2.r	.	2.r	.	2.r	.
.	.	.	.	.	.	.	.	.	.	.	.	.	.	.	.	.	8B-/L	.	8f/L	.	8dd\L	.	.	.	.	.	.	.	.	.	.	.	.	.
.	.	.	.	.	.	.	.	.	.	.	.	.	.	4.dd\	-mi	.	8B-/	.	8f/	.	8dd\	.	.	.	.	.	.	.	.	.	.	.	.	.
.	.	.	.	.	.	.	.	.	.	.	.	.	.	.	.	.	8B-/J	.	8f/J	.	8dd\J	.	.	.	.	.	.	.	.	.	.	.	.	.
8A\)	.	8A\)yy	.	.	.	.	.	.	.	.	.	.	.	.	.	.	8r	.	8r	.	8r	.	.	.	.	.	.	.	.	.	.	.	.	.
8r	.	8ryy	.	.	.	.	.	.	.	.	.	.	.	8cc\	grze-	.	8A/	.	8f/	.	8cc\	.	.	.	.	.	.	.	.	.	.	.	.	.
=26	=26	=26	=26	=26	=26	=26	=26	=26	=26	=26	=26	=26	=26	=26	=26	=26	=26	=26	=26	=26	=26	=26	=26	=26	=26	=26	=26	=26	=26	=26	=26	=26	=26	=26
*	*	*	*	*	*	*	*	*	*	*	*	*	*	*	*	*	*	*	*	*	*	*	*	*	*^	*	*	*	*	*	*	*	*	*
(>4G\	.	(>4G\yy	.	2.r	.	.	2.r	.	2.r	.	2.r	.	.	(>8.cc\L	-szne-	.	(<8G/L	.	(<8d/L	.	(>8.cc\L	.	2.r	.	4r	2ryy	.	4r	.	4r	.	2.r	.	2.r	.
.	.	.	.	.	.	.	.	.	.	.	.	.	.	.	.	.	8c/J)	.	8e/J)	.	.	.	.	.	.	.	.	.	.	.	.	.	.	.	.
.	.	.	.	.	.	.	.	.	.	.	.	.	.	16b-X\Jk)	.	.	.	.	.	.	16b-X\Jk)	.	.	.	.	.	.	.	.	.	.	.	.	.	.
8F\)	.	8F\)yy	.	.	.	.	.	.	.	.	.	.	.	8a/	-mi	.	8c/	.	8f/	.	8a/	.	.	.	4r	.	.	4r	.	4r	.	.	.	.	.
8r	.	8ryy	.	.	.	.	.	.	.	.	.	.	.	8r	.	.	8r	.	8r	.	8r	.	.	.	.	.	.	.	.	.	.	.	.	.	.
!	!	!	!	!	!	!	!	!	!	!	!	!	!	!	!	!	!	!	!	!	!	!LO:DY:a	!	!	!	!	!	!	!	!	!	!	!	!	!
4D-X^>\	sf	4D-X^>\yy	sf y	.	.	.	.	.	.	.	.	.	.	8f/	te-	.	(<8F/L	.	4Bn/	.	4f^</	sf	.	.	(>8F/L	4D-X\	sf	[<4F/ [>4f/	.	(<4Bn^>/ (>4f/	sf	.	.	.	.
.	.	.	.	.	.	.	.	.	.	.	.	.	.	8g/	-raz	.	8G/J)	.	.	.	.	.	.	.	8G/J)	.	.	.	.	.	.	.	.	.	.
*	*	*	*	*	*	*	*	*	*	*	*	*	*	*	*	*	*	*	*	*	*	*	*	*	*v	*v	*	*	*	*	*	*	*	*	*
=27	=27	=27	=27	=27	=27	=27	=27	=27	=27	=27	=27	=27	=27	=27	=27	=27	=27	=27	=27	=27	=27	=27	=27	=27	=27	=27	=27	=27	=27	=27	=27	=27	=27	=27
8C/	.	8C/yy	.	2.r	.	.	2.r	.	2.r	.	2.r	.	.	4.a/	i	.	8r	.	8r	.	8r	.	2.r	.	8C\ 8A\	.	8F/] 8f]/	.	8c/)) 8f/	.	2.r	.	2.r	.
8r	.	8ryy	.	.	.	.	.	.	.	.	.	.	.	.	.	.	8A/	.	8c/	.	8f/	.	.	.	8r	.	8r	.	8r	.	.	.	.	.
*	*	*	*	*	*	*	*	*	*	*	*	*	*	*	*	*	*rep	*	*rep	*	*rep	*	*	*	*	*	*	*	*	*	*	*	*	*
8C/	.	8C/yy	.	.	.	.	.	.	.	.	.	.	.	.	.	.	8r	.	8r	.	8r	.	.	.	4r	.	4r	.	4r	.	.	.	.	.
8r	.	8ryy	.	.	.	.	.	.	.	.	.	.	.	8a/	w go-	.	8A/	.	8c/	.	8f/	.	.	.	.	.	.	.	.	.	.	.	.	.
.	.	.	.	.	.	.	.	.	.	.	.	.	.	(<8qcc/	.	.	.	.	.	.	.	.	.	.	.	.	.	.	.	.	.	.	.	.
*	*	*	*	*	*	*	*	*	*	*	*	*	*	*	*	*	*Xrep	*	*Xrep	*	*Xrep	*	*	*	*	*	*	*	*	*	*	*	*	*
*	*	*	*	*	*	*	*	*	*	*	*	*	*	*	*	*	*rep	*	*rep	*	*rep	*	*	*	*	*	*	*	*	*	*	*	*	*
8C/	.	8C/yy	.	.	.	.	.	.	.	.	.	.	.	8b-/)	-dzi-	.	8r	.	8r	.	8r	.	.	.	4r	.	4r	.	4r	.	.	.	.	.
8r	.	8ryy	.	.	.	.	.	.	.	.	.	.	.	8a/	-nę	.	8A/	.	8c/	.	8f/	.	.	.	.	.	.	.	.	.	.	.	.	.
*	*	*	*	*	*	*	*	*	*	*	*	*	*	*	*	*	*Xrep	*	*Xrep	*	*Xrep	*	*	*	*	*	*	*	*	*	*	*	*	*
!!LO:PB:g=original
=28	=28	=28	=28	=28	=28	=28	=28	=28	=28	=28	=28	=28	=28	=28	=28	=28	=28	=28	=28	=28	=28	=28	=28	=28	=28	=28	=28	=28	=28	=28	=28	=28	=28	=28
8BB-/	.	8BB-/yy	.	2.r	.	.	2.r	.	2.r	.	2.r	.	.	8a/	śmier-	.	8r	.	8r	.	8r	.	8ryy	.	2.r	.	2.r	.	2.r	.	2.r	.	2.r	.
8r	.	8ryy	.	.	.	.	.	.	.	.	.	.	.	8g/	-ci	.	8B-/	.	8d/	.	8g/	.	8g/yy	.	.	.	.	.	.	.	.	.	.	.
8BB-/	.	8BB-/yy	.	.	.	.	.	.	.	.	.	.	.	4d/	na-	.	8r	.	8r	.	8r	.	8ryy	.	.	.	.	.	.	.	.	.	.	.
8r	.	8ryy	.	.	.	.	.	.	.	.	.	.	.	.	.	.	8B-/	.	8B-/	.	8d/	.	8d/yy	.	.	.	.	.	.	.	.	.	.	.
8C/	.	8C/yy	.	.	.	.	.	.	.	.	.	.	.	4e/	-szej	.	8r	.	8r	.	8r	.	8ryy	.	.	.	.	.	.	.	.	.	.	.
8r	.	8ryy	.	.	.	.	.	.	.	.	.	.	.	.	.	.	8G/ 8c	.	8B-/	.	8e/	.	8e/yy	.	.	.	.	.	.	.	.	.	.	.
=29	=29	=29	=29	=29	=29	=29	=29	=29	=29	=29	=29	=29	=29	=29	=29	=29	=29	=29	=29	=29	=29	=29	=29	=29	=29	=29	=29	=29	=29	=29	=29	=29	=29	=29
4.FF/	.	4.FF/yy	.	2.r	.	.	2.r	.	2.r	.	2.r	.	.	4g/	a-	.	4.F/ 4.c	.	(<4B-/ (>4e/	.	(<4g/	>	4r	.	2.r	.	2.r	.	2.r	.	2.r	.	2.r	.
.	.	.	.	.	.	.	.	.	.	.	.	.	.	8f/	-men.	.	.	.	16A/) 16f)/	.	16f/)	]	16r	.	.	.	.	.	.	.	.	.	.	.
.	.	.	.	.	.	.	.	.	.	.	.	.	.	.	.	.	.	.	16ryy	.	(<16f/LL	.	(>16ff\LL	.	.	.	.	.	.	.	.	.	.	.
4r	.	4ryy	.	.	.	.	.	.	.	.	.	.	.	8r	.	.	8r	.	8r	.	16e/	.	16ee\	<	.	.	.	.	.	.	.	.	.	.
.	.	.	.	.	.	.	.	.	.	.	.	.	.	.	.	.	.	.	.	.	16f/JJ	.	16ff\JJ	.	.	.	.	.	.	.	.	.	.	.
.	.	.	.	.	.	.	.	.	.	.	.	.	.	4r	.	.	4r	.	4r	.	16g/LL	.	16gg\LL	.	.	.	.	.	.	.	.	.	.	.
.	.	.	.	.	.	.	.	.	.	.	.	.	.	.	.	.	.	.	.	.	16a/	.	16aa\	.	.	.	.	.	.	.	.	.	.	.
8r	.	8ryy	.	.	.	.	.	.	.	.	.	.	.	.	.	.	.	.	.	.	16b-/	.	16bb-\	.	.	.	.	.	.	.	.	.	.	.
.	.	.	.	.	.	.	.	.	.	.	.	.	.	.	.	.	.	.	.	.	16bn/JJ)	.	16bbn\JJ	[[	.	.	.	.	.	.	.	.	.	.
=30!|:	=30!|:	=30!|:	=30!|:	=30!|:	=30!|:	=30!|:	=30!|:	=30!|:	=30!|:	=30!|:	=30!|:	=30!|:	=30!|:	=30!|:	=30!|:	=30!|:	=30!|:	=30!|:	=30!|:	=30!|:	=30!|:	=30!|:	=30!|:	=30!|:	=30!|:	=30!|:	=30!|:	=30!|:	=30!|:	=30!|:	=30!|:	=30!|:	=30!|:	=30!|:
*>B	*	*>B	*	*>B	*	*	*>B	*	*>B	*	*>B	*	*	*>B	*	*	*>B	*	*>B	*	*>B	*	*>B	*	*>B	*	*>B	*	*>B	*	*>B	*	*>B	*
*	*	*	*	*	*	*	*	*	*	*	*	*	*	*	*	*	*	*	*	*	*	*	*	*	*	*	*	*	*^	*	*	*	*	*
*	*	*	*	*	*	*	*	*	*	*	*	*	*	*	*	*	*	*	*	*	*	*	*	*	*2\right	*	*	*	*	*	*	*	*	*	*
!LO:TX:b:t=pizz.	!	!LO:TX:b:t=pizz.	!	!	!	!	!	!LO:DY:a:rj	!	!	!	!	!LO:DY:a:rj	!	!	!	!	!	!LO:TX:b:t=pizz	!	!	!	!	!	!	!LO:DY:rj	!	!	!	!	!LO:DY:rj	!	!	!	!
8C/	.	8C/yy	.	8C/	Módl	.	8G\ 8B-	p	8e/	.	8cc\	Módl	p	2.r	.	.	8c\ 8e	.	8g/ 8b-/	.	8cc\	.	[>2.cccTT>\)	.	2.C\ 2.e\	p	2.c/ 2.g/	.	2.cc/	2.b-X\	p	2.r	.	2.r	.
8r	.	8ryy	.	8r	.	.	8r	.	8r	.	8r	.	.	.	.	.	8r	.	8r	.	8r	.	.	.	.	.	.	.	.	.	.	.	.	.	.
*	*	*	*	*	*	*	*	*	*	*	*	*	*	*	*	*	*rep	*	*	*	*	*	*	*	*	*	*	*	*	*	*	*	*	*	*
!	!	!	!	!	!	!	!	!	!	!	!	!	!	!	!	!	!	!	!	!	!LO:TX:b:t=pizz:rj	!	!	!	!	!	!	!	!	!	!	!	!	!	!
8C/	.	8C/yy	.	8C/	się	.	8G\ 8B-	.	8e/	.	8cc\	się	.	.	.	.	8c\ 8e	.	8g/ 8b-/	.	8cc\	.	.	.	.	.	.	.	.	.	.	.	.	.	.
8r	.	8ryy	.	8r	.	.	8r	.	8r	.	8r	.	.	.	.	.	8r	.	8r	.	8r	.	.	.	.	.	.	.	.	.	.	.	.	.	.
*	*	*	*	*	*	*	*	*	*	*	*	*	*	*	*	*	*Xrep	*	*	*	*	*	*	*	*	*	*	*	*	*	*	*	*	*	*
*	*	*	*	*	*	*	*	*	*	*	*	*	*	*	*	*	*rep	*	*	*	*	*	*	*	*	*	*	*	*	*	*	*	*	*	*
8C/	.	8C/yy	.	8C/	za	.	8G\ 8B-	.	8e/	.	8cc\	za	.	.	.	.	8c\ 8e	.	8g/ 8b-/	.	8cc\	.	.	.	.	.	.	.	.	.	.	.	.	.	.
8r	.	8ryy	.	8r	.	.	8r	.	8r	.	8r	.	.	.	.	.	8r	.	8r	.	8r	.	.	.	.	.	.	.	.	.	.	.	.	.	.
*	*	*	*	*	*	*	*	*	*	*	*	*	*	*	*	*	*Xrep	*	*	*	*	*	*	*	*	*	*	*	*	*	*	*	*	*	*
=31	=31	=31	=31	=31	=31	=31	=31	=31	=31	=31	=31	=31	=31	=31	=31	=31	=31	=31	=31	=31	=31	=31	=31	=31	=31	=31	=31	=31	=31	=31	=31	=31	=31	=31	=31
8F\	.	8F\yy	.	4F\	na-	.	4A\	.	4f/	.	8.cc\L	na-	.	4r	.	.	8c\ 8f	.	8f/ 8a/	.	8cc\	.	8.ccc\L]	.	4.F\ 4.f\	.	4.c/ 4.a/	.	8.cc/L	4.a\	.	2.r	.	2.r	.
8r	.	8ryy	.	.	.	.	.	.	.	.	.	.	.	.	.	.	8r	.	8r	.	8r	.	.	.	.	.	.	.	.	.	.	.	.	.	.
.	.	.	.	.	.	.	.	.	.	.	16dd\Jk	.	.	.	.	.	.	.	.	.	.	.	16ddd\Jk	.	.	.	.	.	16dd/Jk	.	.	.	.	.	.
8F\	.	8F\yy	.	8F\	-mi.	.	8A\	.	8f/	.	8cc\	-mi	.	8r	.	.	8c\ 8f	.	8f/ 8a/	.	8cc\	.	8ccc\	.	.	.	.	.	8cc/	.	.	.	.	.	.
8r	.	8ryy	.	8r	.	.	8r	.	8r	.	8r	.	.	8c/	módl	.	8r	.	8r	.	8r	.	8r	.	8r	.	8r	.	8rdd	8rd	.	.	.	.	.
4r	.	4ryy	.	4r	.	.	4r	.	4r	.	4r	.	.	8f/	się	.	4r	.	4r	.	4r	.	4r	.	4r	.	4r	.	4rdd	4rd	.	.	.	.	.
.	.	.	.	.	.	.	.	.	.	.	.	.	.	8a/	za	.	.	.	.	.	.	.	.	.	.	.	.	.	.	.	.	.	.	.	.
!!LO:PB:g=original
=32	=32	=32	=32	=32	=32	=32	=32	=32	=32	=32	=32	=32	=32	=32	=32	=32	=32	=32	=32	=32	=32	=32	=32	=32	=32	=32	=32	=32	=32	=32	=32	=32	=32	=32	=32
8C/	.	8C/yy	.	8C/	módl	.	8G\ 8B-	.	8e/	.	8cc\	módl	.	(>4.c/	na-	.	8c\ 8e	.	8g/ 8b-/	.	8cc\	.	[>2.cccTT>\	.	2.C\ 2.e\	.	2.c/ 2.g/	.	[>2.cc/	(<2.b-X\	.	2.r	.	2.r	.
8r	.	8ryy	.	8r	.	.	8r	.	8r	.	8r	.	.	.	.	.	8r	.	8r	.	8r	.	.	.	.	.	.	.	.	.	.	.	.	.	.
8C/	.	8C/yy	.	8C/	się	.	8G\ 8B-	.	8e/	.	8cc\	się	.	.	.	.	8c\ 8e	.	8g/ 8b-/	.	8cc\	.	.	.	.	.	.	.	.	.	.	.	.	.	.
8r	.	8ryy	.	8r	.	.	8r	.	8r	.	8r	.	.	16Bn/LL	.	.	8r	.	8r	.	8r	.	.	.	.	.	.	.	.	.	.	.	.	.	.
.	.	.	.	.	.	.	.	.	.	.	.	.	.	16c/JJ	.	.	.	.	.	.	.	.	.	.	.	.	.	.	.	.	.	.	.	.	.
.	.	.	.	.	.	.	.	.	.	.	.	.	.	(<8qe/	.	.	.	.	.	.	.	.	.	.	.	.	.	.	.	.	.	.	.	.	.
8C/	.	8C/yy	.	8C/	za	.	8G\ 8B-	.	8e/	.	8cc\	za	.	8.d/L)	.	.	8c\ 8e	.	8g/ 8b-/	.	8cc\	.	.	.	.	.	.	.	.	.	.	.	.	.	.
8r	.	8ryy	.	8r	.	.	8r	.	8r	.	8r	.	.	.	.	.	8r	.	8r	.	8r	.	.	.	.	.	.	.	.	.	.	.	.	.	.
.	.	.	.	.	.	.	.	.	.	.	.	.	.	16c/Jk)	.	.	.	.	.	.	.	.	.	.	.	.	.	.	.	.	.	.	.	.	.
=33	=33	=33	=33	=33	=33	=33	=33	=33	=33	=33	=33	=33	=33	=33	=33	=33	=33	=33	=33	=33	=33	=33	=33	=33	=33	=33	=33	=33	=33	=33	=33	=33	=33	=33	=33
8F\	.	8F\yy	.	4F\	na-	.	4A\	.	4f/	.	(>8.cc\L	na-	.	8c/	-mi	.	8c\ 8f	.	8f/ 8a/	.	8cc\	.	8.ccc\L]	.	4.F\ 4.f\	.	4.c/ 4.a/	.	8.cc/L]	4.a\)	.	2.r	.	2.r	.
8r	.	8ryy	.	.	.	.	.	.	.	.	.	.	.	8r	.	.	8r	.	8r	.	8r	.	.	.	.	.	.	.	.	.	.	.	.	.	.
.	.	.	.	.	.	.	.	.	.	.	16dd\Jk)	.	.	.	.	.	.	.	.	.	.	.	16ddd\Jk	.	.	.	.	.	16dd/Jk	.	.	.	.	.	.
8F\	.	8F\yy	.	8F\	-mi	.	8A\	.	8f/	.	8cc\	-mi	.	8r	.	.	8c\ 8f	.	8f/ 8a/	.	8cc\	.	8ccc\	.	.	.	.	.	8cc/	.	.	.	.	.	.
8r	.	8ryy	.	8r	.	.	8r	.	8r	.	8r	.	.	8c/	módl	.	8r	.	8r	.	8r	.	8r	.	8r	.	8r	.	8r	4.ryy	.	.	.	.	.
8F\	.	8F\yy	.	8r	.	.	8r	.	8r	.	8r	.	.	8a/	się	.	8r	.	8r	.	8.r	.	8.r	.	4r	.	4r	.	4r	.	.	.	.	.	.
8r	.	8ryy	.	8F\	za	.	8A\	.	8f/	.	8cc\	za	.	8f/	za	.	8c\ 8f	.	8f/ 8a/	.	.	.	.	.	.	.	.	.	.	.	.	.	.	.	.
!	!	!	!	!	!	!	!	!	!	!	!	!	!	!	!	!	!	!	!	!	!LO:TX:a:t=arco	!	!	!	!	!	!	!	!	!	!	!	!	!	!
.	.	.	.	.	.	.	.	.	.	.	.	.	.	.	.	.	.	.	.	.	16cc\	.	16ccc\	.	.	.	.	.	.	.	.	.	.	.	.
=34	=34	=34	=34	=34	=34	=34	=34	=34	=34	=34	=34	=34	=34	=34	=34	=34	=34	=34	=34	=34	=34	=34	=34	=34	=34	=34	=34	=34	=34	=34	=34	=34	=34	=34	=34
8C/	.	8C/yy	.	8C/	na-	.	8G\ 8B-	.	8e/	.	8cc\	na-	.	2cc\	na-	.	8c\ 8e	.	8g/ 8b-X/	.	8cc\	.	2cccTT>\	.	4.C\ 4.e\	.	4.c/ 4.g/	.	4.cc/	4.b-\	.	2.r	.	4r	.
8r	.	8ryy	.	8r	.	.	8r	.	8r	.	8r	.	.	.	.	.	8r	.	8r	.	8r	.	.	.	.	.	.	.	.	.	.	.	.	.	.
8C/	.	8C/yy	.	8C/	-mi	.	8G\ 8B-	.	8e/	.	8cc\	-mi	.	.	.	.	8c\ 8e	.	8g/ 8b-/	.	8cc\	.	.	.	.	.	.	.	.	.	.	.	.	4r	.
8r	.	8ryy	.	8r	.	.	8r	.	8r	.	8r	.	.	.	.	.	8r	.	8r	.	8r	.	.	.	8r	.	8r	.	8r	8ryy	.	.	.	.	.
!LO:TX:a:t=arco	!	!LO:TX:a:t=arco	!	!	!	!	!	!	!	!	!	!	!	!	!	!	!	!	!LO:TX:b:t=arco	!	!	!	!	!	!	!	!	!	!	!	!	!	!	!	!
4C^</	.	4C^</yy	.	4C/	grze-	.	4B-\	.	4g/	.	4cc\	grze-	.	16cc\	-mi	.	4c\ 4e	.	4g^>/ 4b-/	.	16cc\LL	.	16ccc\LL	.	4C\ 4c\	.	4c/ 4g/	.	4cc/	4b-\	.	.	.	(>16ccc\LL	.
.	.	.	.	.	.	.	.	.	.	.	.	.	.	(>32bn\LLL	grze-	.	.	.	.	.	(>32bn\L	<	(>32bbn\L	<	.	.	.	.	.	.	.	.	.	32bbn\L	<
.	.	.	.	.	.	.	.	.	.	.	.	.	.	32cc\	.	.	.	.	.	.	32cc\	.	32ccc\	.	.	.	.	.	.	.	.	.	.	32ccc\	.
.	.	.	.	.	.	.	.	.	.	.	.	.	.	32cc#X\	.	.	.	.	.	.	32cc#X\	.	32ccc#X\	.	.	.	.	.	.	.	.	.	.	32ccc#X\	.
.	.	.	.	.	.	.	.	.	.	.	.	.	.	32dd\	.	.	.	.	.	.	32dd\	.	32ddd\	.	.	.	.	.	.	.	.	.	.	32ddd\	.
.	.	.	.	.	.	.	.	.	.	.	.	.	.	32dd#X\	.	.	.	.	.	.	32dd#X\	.	32ddd#X\	.	.	.	.	.	.	.	.	.	.	32ddd#X\	.
.	.	.	.	.	.	.	.	.	.	.	.	.	.	32ee\JJJ)	.	.	.	.	.	.	32ee\JJJ)	[[	32eee\JJJ)	[[	.	.	.	.	.	.	.	.	.	32eee\JJJ)	[
!!LO:PB:g=original
=35	=35	=35	=35	=35	=35	=35	=35	=35	=35	=35	=35	=35	=35	=35	=35	=35	=35	=35	=35	=35	=35	=35	=35	=35	=35	=35	=35	=35	=35	=35	=35	=35	=35	=35	=35
!	!LO:DY:rj	!	!LO:DY:rj	!	!	!	!	!	!	!	!	!	!LO:DY:a:rj	!	!	!LO:DY:a:rj	!	!	!	!LO:DY:rj	!	!LO:DY:rj	!	!	!	!LO:DY:rj	!	!	!	!	!LO:DY:rj	!	!	!	!LO:DY:rj
8.D-X/L	f	8.D-X/Lyy	f	8.D-X\	-szne-	.	8.A-X\	.	8.f/	f	8.ff\	-szne-	f	8.ff\	-szne-	f	8.d-X\L 8.f	.	8.a-X/L	f	8.ff\L	f	(>16fff\LL	.	8.D-X\L 8.A-X\	f	8.F/L 8.f/	.	8.a-X\L 8.ff\	2ryy	f	8.ff\L	.	8.fff\L	f
.	.	.	.	.	.	.	.	.	.	.	.	.	.	.	.	.	.	.	.	.	.	.	16ff\)	.	.	.	.	.	.	.	.	.	.	.	.
.	.	.	.	.	.	.	.	.	.	.	.	.	.	.	.	.	.	.	.	.	.	.	(>16ff\	.	.	.	.	.	.	.	.	.	.	.	.
16D-/Jk	.	16D-/Jkyy	.	16D-\	-mi	.	16A-\	.	16f/	.	16ff\	-mi	.	16ff\	-mi	.	16d-\Jk 16f	.	16a-/Jk	.	16ff\Jk	.	16fff\JJ)	.	16D-\Jk 16A-\	.	16F/Jk 16f	.	16a-\Jk 16ff\	.	.	16ff\Jk	.	16fff\Jk	.
*	*	*	*	*	*	*	*	*	*	*	*	*	*	*	*	*	*rep	*	*rep	*	*	*	*	*	*rep	*	*rep	*	*	*	*	*	*	*	*
8.D-/L	.	8.D-/Lyy	.	8.D-\	te-	.	8.A-\	.	8.f/	.	8.ff\	te-	.	8.ff\	te-	.	8.d-\L 8.f	.	8.a-/L	.	8.ff\L	.	(>16fff\LL	.	8.D-\L 8.A-\	.	8.F/L 8.f	.	8.a-\L 8.ff\	.	.	8.ff\L	.	8.fff\L	.
.	.	.	.	.	.	.	.	.	.	.	.	.	.	.	.	.	.	.	.	.	.	.	16ff\)	.	.	.	.	.	.	.	.	.	.	.	.
.	.	.	.	.	.	.	.	.	.	.	.	.	.	.	.	.	.	.	.	.	.	.	(>16ff\	.	.	.	.	.	.	.	.	.	.	.	.
16D-/Jk	.	16D-/Jkyy	.	16D-\	-raz	.	16A-\	.	16f/	.	16ff\	-raz	.	16ff\	-raz	.	16d-\Jk 16f	.	16a-/Jk	.	16ff\Jk	.	16fff\JJ)	.	16D-\Jk 16A-\	.	16F/Jk 16f/	.	16a-\Jk 16ff	.	.	16ff\Jk	.	16fff\Jk	.
*	*	*	*	*	*	*	*	*	*	*	*	*	*	*	*	*	*Xrep	*	*Xrep	*	*	*	*	*	*Xrep	*	*Xrep	*	*	*	*	*	*	*	*
*	*	*	*	*	*	*	*	*	*	*	*	*	*	*	*	*	*rep	*	*rep	*	*	*	*	*	*rep	*	*rep	*	*	*	*	*	*	*	*
8.D-/L	.	8.D-/Lyy	.	8.D-\	i	.	8.A-\	.	8.f/	.	8.bn\	i	.	8.bn\	i	.	8.d-\L 8.f	.	8.a-/L	.	8.bn\L	.	(>16fff\LL	.	8.D-\L 8.A-\	.	8.F/L 8.f/	.	8.bn/L	8.a-\L	.	8.ff\L	.	8.bbn\L	.
.	.	.	.	.	.	.	.	.	.	.	.	.	.	.	.	.	.	.	.	.	.	.	16bbn\)	.	.	.	.	.	.	.	.	.	.	.	.
.	.	.	.	.	.	.	.	.	.	.	.	.	.	.	.	.	.	.	.	.	.	.	16bb'>\	.	.	.	.	.	.	.	.	.	.	.	.
16D-/Jk	.	16D-/Jkyy	.	16D-\	w go-	.	16A-\	.	16f/	.	16b\	w go-	.	16b\	w go-	.	16d-\Jk 16f	.	16a-/Jk	.	16b\Jk	.	16bb'>\JJ	.	16D-\Jk 16A-\	.	16F/Jk 16f/	.	16b/Jk	16a-\Jk	.	16ff\Jk	.	16bb\Jk	.
*	*	*	*	*	*	*	*	*	*	*	*	*	*	*	*	*	*Xrep	*	*Xrep	*	*	*	*	*	*Xrep	*	*Xrep	*	*	*	*	*	*	*	*
=36	=36	=36	=36	=36	=36	=36	=36	=36	=36	=36	=36	=36	=36	=36	=36	=36	=36	=36	=36	=36	=36	=36	=36	=36	=36	=36	=36	=36	=36	=36	=36	=36	=36	=36	=36
*	*	*	*	*	*	*	*	*	*	*	*	*	*	*	*	*	*	*	*	*	*	*	*	*	*	*	*^	*	*	*	*	*	*	*	*
8C/	.	8C/	.	8C/	-dzi-	.	8An\	.	8f/	.	(>16dd\LL	-dzi-	.	(>16dd\LL	-dzi-	.	8c\ 8f	.	8an/	.	(>16dd\LL	.	(>16ddd\LL	.	8C\ 8An\	.	8F/ 8f/	2ryy	.	(>16dd/LL	8an\	.	8ff\	.	(>16ddd\LL	.
.	.	.	.	.	.	.	.	.	.	.	16cc\JJ)	.	.	16cc\JJ)	.	.	.	.	.	.	16cc\JJ)	.	16ccc\)	.	.	.	.	.	.	16cc/JJ)	.	.	.	.	16ccc\JJ)	.
!	!	!	!LO:DY:rj	!	!	!	!	!	!	!	!	!	!	!	!	!	!	!	!	!	!	!	!	!	!	!	!	!	!	!	!	!	!	!	!	!
8r	.	16FF/	pp	8C/	-nę	.	8A\	.	8f/	.	8a/	-nę	.	(<16a/LL	-nę	.	16c\	.	16f/	.	16a/	pp	16fff\	.	8r	.	8r	.	.	8r	8ryy	.	8r	.	8r	.
.	.	16r	.	.	.	.	.	.	.	.	.	.	.	16cc/JJ)	.	.	16r	.	16r	.	16r	.	16aa\JJ	.	.	.	.	.	.	.	.	.	.	.	.	.
4r	.	16AA/	.	8r	.	.	8r	.	8r	.	8r	.	.	16f/	śmier-	.	16A/	.	16c/	.	16f/	.	16ccc\LL	.	4r	.	4r	.	.	4r	2ryy	.	4r	.	4r	.
.	.	16r	.	.	.	.	.	.	.	.	.	.	.	16a/	-ci	.	16r	.	16r	.	16r	.	16ff\	.	.	.	.	.	.	.	.	.	.	.	.	.
.	.	16C/	.	16C/	śmier-	.	16A\	.	16c/	.	16f/	śmier-	.	16c/	na-	.	16F/	.	16A/	.	16c/	.	16aa\	.	.	.	.	.	.	.	.	.	.	.	.	.
!	!	!	!	!	!	!	!	!LO:DY:a	!	!	!	!	!LO:DY:a	!	!	!	!	!	!	!	!	!	!	!	!	!	!	!	!	!	!	!	!	!	!	!
.	.	16r	.	16C/	-ci	.	16A\	pp	16c/	.	16f/	-ci	p	16f/	-szej	.	16r	.	16r	.	16r	.	16cc\JJ	.	.	.	.	.	.	.	.	.	.	.	.	.
!	!LO:DY:rj	!	!	!	!	!	!	!	!	!	!	!	!	!	!	!	!	!	!	!	!	!	!	!	!	!LO:DY:rj	!	!	!LO:DY:rj	!	!	!	!	!	!	!
4C/	pp	(<4CC/	.	16C/	na-	.	16B-\	.	16c/	.	16e/	na-	.	(<8.a/L	a-	.	[>4c\	.	(<4B-/	.	(<4e/	.	(>8.ccT>\L	.	(<4C-\ (>4B-\	pp	((4e/	4c\	pp	4r	.	.	4r	.	4r	.
.	.	.	.	16C/	-szej	.	16B-\	.	16c/	.	16e/	-szej	.	.	.	.	.	.	.	.	.	.	.	.	.	.	.	.	.	.	.	.	.	.	.	.
.	.	.	.	8C/	a-	.	8B-\	.	8c/	.	8e/	a-	.	.	.	.	.	.	.	.	.	.	.	.	.	.	.	.	.	.	.	.	.	.	.	.
.	.	.	.	.	.	.	.	.	.	.	.	.	.	16g/Jk)	.	.	.	.	.	.	.	.	32dd\LL	.	.	.	.	.	.	.	.	.	.	.	.	.
.	.	.	.	.	.	.	.	.	.	.	.	.	.	.	.	.	.	.	.	.	.	.	32ee\JJJ	.	.	.	.	.	.	.	.	.	.	.	.	.
*	*	*	*	*	*	*	*	*	*	*	*	*	*	*	*	*	*	*	*	*	*	*	*	*	*	*	*	*	*	*v	*v	*	*	*	*	*
=37	=37	=37	=37	=37	=37	=37	=37	=37	=37	=37	=37	=37	=37	=37	=37	=37	=37	=37	=37	=37	=37	=37	=37	=37	=37	=37	=37	=37	=37	=37	=37	=37	=37	=37	=37
*>B1	*	*>B1	*	*>B1	*	*	*>B1	*	*>B1	*	*>B1	*	*	*>B1	*	*	*>B1	*	*>B1	*	*>B1	*	*>B1	*	*>B1	*	*>B1	*>B1	*	*>B1	*	*>B1	*	*>B1	*
!!LO:TX:a:t=Ima
8F\	.	8FF/)	.	8F\	-men.	.	8A\	.	8c/	.	8f/	-men.	.	8f/	-men.-	.	8c\]	.	8A/)	.	8f/)	.	8ff\)	.	8F\) 8A)\	.	8f/))	8c\	.	4r	.	8r	.	4r	.
!	!	!	!	!	!	!	!	!	!	!	!	!	!	!	!	!	!	!	!	!	!	!	!	!	!	!	!	!	!	!	!	!	!LO:DY:rj	!	!
8r	.	8r	.	8r	.	.	8r	.	8r	.	8r	.	.	8r	.	.	8r	.	8r	.	8r	.	8r	.	8r	.	8r	8ryy	.	.	.	8aa\	f	.	.
!	!LO:DY:rj	!	!LO:DY:rj	!	!	!	!	!	!	!	!	!	!	!	!	!	!	!	!	!LO:DY:rj	!	!LO:DY:rj	!	!LO:DY:rj	!	!	!	!	!LO:DY:rj	!	!LO:DY:rj	!	!	!	!LO:DY:rj
8F\	f	8F\	f	4r	.	.	4r	.	4r	.	4r	.	.	4r	.	.	8F/ 8c	.	16f/ 16cc/	f	16a\ 16ff	f	16a\ 16ff	f	8F\ 8c\	.	8A/ 8f/	2ryy	f	8a\ 8ff\	f	8r	.	8fff\	f
.	.	.	.	.	.	.	.	.	.	.	.	.	.	.	.	.	.	.	16ryy	.	(<16f/LL	.	(>16ff\LL	.	.	.	.	.	.	.	.	.	.	.	.
8r	.	8r	.	.	.	.	.	.	.	.	.	.	.	.	.	.	8r	.	8r	.	16e/	.	16ee\	.	8r	.	8r	.	.	8r	.	4r	.	8r	.
.	.	.	.	.	.	.	.	.	.	.	.	.	.	.	.	.	.	.	.	.	16f/JJ	.	16ff\JJ	.	.	.	.	.	.	.	.	.	.	.	.
4r	.	4r	.	4r	.	.	4r	.	4r	.	4r	.	.	4r	.	.	4r	.	4r	.	16g/LL	.	16gg\LL	.	4r	.	4r	.	.	4r	.	.	.	4r	.
.	.	.	.	.	.	.	.	.	.	.	.	.	.	.	.	.	.	.	.	.	16a/	.	16aa\	.	.	.	.	.	.	.	.	.	.	.	.
.	.	.	.	.	.	.	.	.	.	.	.	.	.	.	.	.	.	.	.	.	16b-/	.	16bb-\	.	.	.	.	.	.	.	.	8r	.	.	.
.	.	.	.	.	.	.	.	.	.	.	.	.	.	.	.	.	.	.	.	.	16bn/JJ)	.	16bbn\JJ)	.	.	.	.	.	.	.	.	.	.	.	.
!!LO:PB:g=original
=38:|!	=38:|!	=38:|!	=38:|!	=38:|!	=38:|!	=38:|!	=38:|!	=38:|!	=38:|!	=38:|!	=38:|!	=38:|!	=38:|!	=38:|!	=38:|!	=38:|!	=38:|!	=38:|!	=38:|!	=38:|!	=38:|!	=38:|!	=38:|!	=38:|!	=38:|!	=38:|!	=38:|!	=38:|!	=38:|!	=38:|!	=38:|!	=38:|!	=38:|!	=38:|!	=38:|!
*>B2	*	*>B2	*	*>B2	*	*	*>B2	*	*>B2	*	*>B2	*	*	*>B2	*	*	*>B2	*	*>B2	*	*>B2	*	*>B2	*	*>B2	*	*>B2	*>B2	*	*>B2	*	*>B2	*	*>B2	*
*	*	*	*	*	*	*	*	*	*	*	*	*	*	*	*	*	*	*	*	*	*	*	*	*	*^	*	*	*	*	*	*	*	*	*	*
!!mixed beam:problem
!!LO:TX:a:t=2da
!	!	!	!	!	!	!	!	!	!	!	!	!	!	!LO:TX:a:t=Soprano	!	!	!LO:TX:t=P:problem:w taktach 38-39 sopran solo zamieniony z altówkami	!	!	!	!	!	!	!	!	!	!	!	!	!	!	!	!	!	!	!
!	!	!LO:TX:t=P:problem:mixed beam	!	!	!	!	!	!	!	!	!	!	!	!LO:TX:t=P:problem:w taktach 38-39 sopran solo zamieniony z altówkami	!	!	!LO:TX:a:t=Viole	!	!	!	!	!	!	!	!	!	!	!	!	!	!	!LO:DY:rj	!	!	!	!
8F\	.	(16FF/LL	.	8F\	.	.	8A\	.	8c/	.	8f/	men	.	8f/	-men	.	16F/LL 16c/	.	(>16A'>/LL 16f/	.	8f/	.	8ff\	.	(>4A/	4.F\	.	4.f/	4.c\	.	4fTT>/ 4a/	p	4r	.	4r	.
.	.	16F'>\	.	.	.	.	.	.	.	.	.	.	.	.	.	.	16F/ 16c/	.	16A'>/ 16f/	.	.	.	.	.	.	.	.	.	.	.	.	.	.	.	.	.
8r	.	16F'>\	.	8r	.	.	8r	.	8r	.	8r	.	.	8r	.	.	16F/ 16c/	.	16A'>/ 16f/	.	8r	.	8r	.	.	.	.	.	.	.	.	.	.	.	.	.
.	.	16F'>\JJ)	.	.	.	.	.	.	.	.	.	.	.	.	.	.	16F/JJ 16c/	.	16A'>/JJ) 16f/	.	.	.	.	.	.	.	.	.	.	.	.	.	.	.	.	.
.	.	.	.	.	.	.	.	.	.	.	.	.	.	.	.	.	.	.	.	.	.	.	.	.	.	.	.	.	.	.	(<16qqe/LL 16qqg#X/	.	.	.	.	.
!	!	!	!	!	!	!	!	!	!	!	!	!	!	!LO:TX:a:t=Io Soprano e Tenore solo unisono\net 2o.	!	!	!	!	!	!	!	!	!	!	!	!	!	!	!	!	!	!	!	!	!	!
.	.	.	.	.	.	.	.	.	.	.	.	.	.	.	.	.	.	.	.	.	.	.	.	.	.	.	.	.	.	.	16qqf/JJ) 16qqa/	.	.	.	.	.
*	*	*tremolo	*	*	*	*	*	*	*	*	*	*	*	*	*	*	*tremolo	*	*tremolo	*	*	*	*	*	*	*	*	*	*	*	*	*	*	*	*	*
4FF/	.	(16F'>\LL	.	16F\	.	.	16A\	.	16c/	.	16f/	Świę-	.	8.r	.	.	16F/LL 16c/	.	16A/LL 16f/	.	8.r	.	8.r	.	8c/)	.	.	.	.	.	8a/ 8cc	.	8.r	.	8.r	.
.	.	16F'>\	.	16F\	.	.	16A\	.	16c/	.	16f/	-ta	.	.	.	.	16F/ 16c/	.	16A/ 16f/	.	.	.	.	.	.	.	.	.	.	.	.	.	.	.	.	.
.	.	16F'>\	.	16F\	.	.	16A\	.	16c/	.	16f/	Ma-	.	.	.	.	16F/ 16c/	.	16A/ 16f/	.	.	.	.	.	8ryy	8r	.	16r	8ryy	.	8r	.	.	.	.	.
.	.	16F'>\JJ)	.	16F\	.	.	16A\	.	16c/	.	16f/	-rya	.	(>16a\KL	Świę-	.	16F/JJ 16c/	.	16A/JJ 16f/	.	(>16a\KL	.	(>16aa\KL	.	.	.	.	(>16A/KL	.	.	.	.	(>16a\KL	.	(>16aa\KL	.
4r	.	16F\LL	.	16F\	.	.	16A\	.	16c/	.	16f/	ma-	.	8.cc\J)	.	.	16F/LL 16c/	.	16A/LL 16f/	.	8.cc\)	.	8.ccc\)	.	4ryy	4r	.	8.c/)	4r	.	4r	.	8.cc\)	.	8.ccc\)	.
.	.	16F\	.	16F\	.	.	16A\	.	16c/	.	16f/	-tko	.	.	.	.	16F/ 16c/	.	16A/ 16f/	.	.	.	.	.	.	.	.	.	.	.	.	.	.	.	.	.
.	.	16F\	.	16F\	.	.	16A\	.	16c/	.	16f/	Bo-	.	.	.	.	16F/ 16c/	.	16A/ 16f/	.	.	.	.	.	.	.	.	.	.	.	.	.	.	.	.	.
!	!	!	!	!	!	!	!	!	!	!	!	!	!	!	!	!	!	!	!	!	!	!	!	!	!	!	!	!	!	!	!	!	!LO:TX:a:t=|:problem	!	!	!
.	.	16F\JJ	.	16F\	.	.	16A\	.	16c/	.	16f/	-ża	.	16ff\	-ta	.	16F/JJ 16c/	.	16A/JJ 16f/	.	16ff'>\Jk	.	16fff'>\Jk	.	.	.	.	16f'/Jk	.	.	.	.	16ff\Jk	.	16fff\Jk	.
*	*	*Xtremolo	*	*	*	*	*	*	*	*	*	*	*	*	*	*	*	*	*	*	*	*	*	*	*	*	*	*	*	*	*	*	*	*	*	*
*	*	*	*	*	*	*	*	*	*	*	*	*	*	*	*	*	*	*	*	*	*	*	*	*	*v	*v	*	*	*	*	*	*	*	*	*	*
*	*	*	*	*	*	*	*	*	*	*	*	*	*	*	*	*	*	*	*	*	*	*	*	*	*	*	*v	*v	*	*	*	*	*	*	*
=39	=39	=39	=39	=39	=39	=39	=39	=39	=39	=39	=39	=39	=39	=39	=39	=39	=39	=39	=39	=39	=39	=39	=39	=39	=39	=39	=39	=39	=39	=39	=39	=39	=39	=39
*>C	*	*>C	*	*>C	*	*	*>C	*	*>C	*	*>C	*	*	*>C	*	*	*>C	*	*>C	*	*>C	*	*>C	*	*>C	*	*>C	*	*>C	*	*>C	*	*>C	*
*	*	*	*	*	*	*	*	*	*	*	*	*	*	*	*	*	*	*	*	*	*	*	*	*	*	*	*	*	*^	*	*	*	*	*
!	!	!LO:TX:t=P:problem:mixed beam	!	!	!	!	!	!	!	!	!	!	!	!	!	!	!	!	!	!	!	!	!	!	!	!	!	!	!	!	!	!	!	!	!
8F\	.	16FF/LL	.	16F\	.	.	16A\	.	16c/	.	16f/	módl	.	4cc\	Ma-	.	16F/LL 16c/	.	16A/LL 16f/	.	(>4cc\	.	(>4ccc\	.	4.F\ 4.c	.	(>4c/	.	(<4fTT>/ 4a/	4ryy	.	(>4cc\	.	(>4ccc\	.
.	.	16F\	.	16F\	.	.	16A\	.	16c/	.	16f/	się	.	.	.	.	16F/ 16c/	.	16A/ 16f/	.	.	.	.	.	.	.	.	.	.	.	.	.	.	.	.
8r	.	16F\	.	16F\	.	.	16A\	.	16c/	.	16f/	za	.	.	.	.	16F/ 16c/	.	16A/ 16f/	.	.	.	.	.	.	.	.	.	.	.	.	.	.	.	.
.	.	16F\JJ	.	16F\	.	.	16A\	.	16c/	.	16f/	na-	.	.	.	.	16F/JJ 16c/	.	16A/JJ 16f/	.	.	.	.	.	.	.	.	.	.	.	.	.	.	.	.
.	.	.	.	.	.	.	.	.	.	.	.	.	.	.	.	.	.	.	.	.	.	.	.	.	.	.	.	.	16qqe/LL 16qqg#X/	.	.	.	.	.	.
.	.	.	.	.	.	.	.	.	.	.	.	.	.	.	.	.	.	.	.	.	.	.	.	.	.	.	.	.	16qqf/JJ 16qqa/	.	.	.	.	.	.
*	*	*tremolo	*	*	*	*	*	*	*	*	*	*	*	*	*	*	*	*	*	*	*	*	*	*	*	*	*	*	*	*	*	*	*	*	*
4FF/	.	16F\LL	.	16F\	.	.	16A\	.	16c/	.	16f/	-mi	.	8a/	-rya	.	16F/LL 16c/	.	16A/LL 16f/	.	8a/)	.	8aa\)	.	.	.	8A/)	.	8cc/)	8a\	.	8a/)	.	8aa\)	.
.	.	16F\	.	16F\	.	.	16A\	.	16c/	.	16f/	grze-	.	.	.	.	16F/ 16c/	.	16A/ 16f/	.	.	.	.	.	.	.	.	.	.	.	.	.	.	.	.
.	.	16F\	.	16F\	.	.	16A\	.	16c/	.	16f/	-szne-	.	16r	.	.	16F/ 16c/	.	16A/ 16f/	.	16r	.	16r	.	8r	.	16r	.	8r	8ryy	.	16r	.	16r	.
.	.	16F\JJ	.	16F\	.	.	16A\	.	16c/	.	16f/	-mi	.	(>16a\KL	ma-	.	16F/JJ 16c/	.	16A/JJ 16f/	.	(>16a\KL	.	(>16aa\KL	.	.	.	(>16A/KL	.	.	.	.	16a\KL	.	(>16aa\KL	.
4r	.	16F\LL	.	16F\	.	.	16A\	.	16c/	.	16f/	te-	.	8.cc\J)	.	.	16F/LL 16c/	.	16A/LL 16f/	.	8.cc\)	.	8.ccc\)	.	4r	.	8.c/)	.	4r	4ryy	.	8.cc\	.	8.ccc\)	.
.	.	16F\	.	16F\	.	.	16A\	.	16c/	.	16f/	-raz	.	.	.	.	16F/ 16c/	.	16A/ 16f/	.	.	.	.	.	.	.	.	.	.	.	.	.	.	.	.
.	.	16F\	.	16F\	.	.	16A\	.	16c/	.	16f/	i	.	.	.	.	16F/ 16c/	.	16A/ 16f/	.	.	.	.	.	.	.	.	.	.	.	.	.	.	.	.
!	!	!	!	!	!	!	!	!	!	!	!	!	!	!	!	!	!	!	!	!	!LO:TX:a:t=|:problem	!	!LO:TX:a:t=|:problem	!	!	!	!	!	!	!	!	!	!	!LO:TX:a:t=|:problem	!
.	.	16F\JJ	.	16F\	.	.	16A\	.	16c/	.	16f/	w go-	.	16ff\	-tko	.	16F/JJ 16c/	.	16A/JJ 16f/	.	16ff\Jk	.	16fff\Jk	.	.	.	16f'/Jk	.	.	.	.	16ff\Jk	.	16fff\Jk	.
*	*	*	*	*	*	*	*	*	*	*	*	*	*	*	*	*	*	*	*	*	*	*	*	*	*	*	*	*	*v	*v	*	*	*	*	*
!!LO:PB:g=original
=40	=40	=40	=40	=40	=40	=40	=40	=40	=40	=40	=40	=40	=40	=40	=40	=40	=40	=40	=40	=40	=40	=40	=40	=40	=40	=40	=40	=40	=40	=40	=40	=40	=40	=40
*	*	*	*	*	*	*	*	*	*	*	*	*	*	*	*	*	*	*	*	*	*	*	*	*	*	*	*^	*	*	*	*	*	*	*
*	*	*Xtremolo	*	*	*	*	*	*	*	*	*	*	*	*	*	*	*	*	*	*	*	*	*	*	*	*	*	*	*	*	*	*	*	*	*
!!mixed beam:problem
!	!	!LO:TX:t=P:problem:mixed beam	!	!	!	!	!	!	!	!	!	!	!	!LO:TX:a:t=Soprani\nsolo\ne Tenore	!	!	!	!	!	!	!	!	!	!	!	!	!	!	!	!	!	!	!	!	!
8F\	.	16FF/LL	.	16F\	.	.	16A\	.	16c/	.	16f/	-dzi-	.	(>4cc\	Bo-	.	16F/LL 16c/	.	(16A'>/LL 16f/	.	(>4cc\	.	(>4ccc\	.	4.F\ 4.c	.	(>4c/	2.r	.	(<4fTT>/ 4a	.	(>4cc\	.	(>4ccc\	.
.	.	16F\	.	16F\	.	.	16A\	.	16c/	.	16f/	-nę	.	.	.	.	16F/ 16c/	.	16A'>/ 16f/	.	.	.	.	.	.	.	.	.	.	.	.	.	.	.	.
8r	.	16F\	.	16F\	.	.	16A\	.	16c/	.	16f/	śmier-	.	.	.	.	16F/ 16c/	.	16A'>/ 16f/	.	.	.	.	.	.	.	.	.	.	.	.	.	.	.	.
.	.	16F\JJ	.	16F\	.	.	16A\	.	16c/	.	16f/	-ci	.	.	.	.	16F/JJ 16c/	.	16A'>/JJ) 16f/	.	.	.	.	.	.	.	.	.	.	.	.	.	.	.	.
.	.	.	.	.	.	.	.	.	.	.	.	.	.	.	.	.	.	.	.	.	.	.	.	.	.	.	.	.	.	16qqe/LL 16qqg#X/	.	.	.	.	.
.	.	.	.	.	.	.	.	.	.	.	.	.	.	.	.	.	.	.	.	.	.	.	.	.	.	.	.	.	.	16qqf/JJ 16qqa/	.	.	.	.	.
*	*	*tremolo	*	*	*	*	*	*	*	*	*	*	*	*	*	*	*	*	*	*	*	*	*	*	*	*	*	*	*	*	*	*	*	*	*
4FF/	.	16F\LL	.	16F\	.	.	16A\	.	16c/	.	16f/	na-	.	8a/)	-że	.	16F/LL 16c/	.	16A/LL 16f/	.	8a/)	.	8aa\)	.	.	.	8A/)	.	.	8a/) 8cc	.	8a/)	.	8aa\)	.
.	.	16F\	.	16F\	.	.	16A\	.	16c/	.	16f/	-szej	.	.	.	.	16F/ 16c/	.	16A/ 16f/	.	.	.	.	.	.	.	.	.	.	.	.	.	.	.	.
.	.	16F\	.	16F\	.	.	16A\	.	16c/	.	16f/	a-	.	16r	.	.	16F/ 16c/	.	16A/ 16f/	.	16r	.	16r	.	8r	.	16r	.	.	8r	.	16r	.	16r	.
.	.	16F\JJ	.	16F\	.	.	16A\	.	16c/	.	16f/	-men	.	16a/	módl	.	16F/JJ 16c/	.	16A/JJ 16f/	.	(>16a\KL	.	(>16aa\KL	.	.	.	(>16A/KL	.	.	.	.	(>16a\KL	.	(>16aa\KL	.
4r	.	16F\LL	.	16F\	.	.	16A\	.	16c/	.	16f/	te-	.	8.cc\	się	.	16F/LL 16c/	.	16A/LL 16f/	.	8.cc\)	.	8.ccc\)	.	4r	.	8.c/)	.	.	4r	.	8.cc\)	.	8.ccc\)	.
.	.	16F\	.	16F\	.	.	16A\	.	16c/	.	16f/	-raz	.	.	.	.	16F/ 16c/	.	16A/ 16f/	.	.	.	.	.	.	.	.	.	.	.	.	.	.	.	.
.	.	16F\	.	16F\	.	.	16A\	.	16c/	.	16f/	i	.	.	.	.	16F/ 16c/	.	16A/ 16f/	.	.	.	.	.	.	.	.	.	.	.	.	.	.	.	.
!	!	!	!	!	!	!	!	!	!	!	!	!	!	!	!	!	!	!	!	!	!LO:TX:a:t=|:problem	!	!LO:TX:a:t=|:problem	!	!	!	!LO:TX:a:t=|:problem	!	!	!	!	!LO:TX:a:t=|:problem	!	!LO:TX:a:t=|:problem	!
.	.	16F\JJ	.	16F\	.	.	16A\	.	16c/	.	16f/	w go-	.	16ff\	za	.	16F/JJ 16c/	.	16A/JJ 16f/	.	16ff\Jk	.	16fff\Jk	.	.	.	16f/Jk	.	.	.	.	16ff\Jk	.	16fff\Jk	.
*	*	*Xtremolo	*	*	*	*	*	*	*	*	*	*	*	*	*	*	*	*	*	*	*	*	*	*	*	*	*	*	*	*	*	*	*	*	*
*	*	*	*	*	*	*	*	*	*	*	*	*	*	*	*	*	*	*	*	*	*	*	*	*	*	*	*v	*v	*	*	*	*	*	*	*
=41	=41	=41	=41	=41	=41	=41	=41	=41	=41	=41	=41	=41	=41	=41	=41	=41	=41	=41	=41	=41	=41	=41	=41	=41	=41	=41	=41	=41	=41	=41	=41	=41	=41	=41
*	*	*	*	*	*	*	*	*	*	*	*	*	*	*	*	*	*	*	*	*	*	*	*	*	*	*	*	*	*^	*	*	*	*	*
*	*	*	*	*	*	*	*	*	*	*	*	*	*	*	*	*	*	*	*	*	*	*	*	*	*2\right	*	*	*	*	*	*	*	*	*	*
!!mixed beam:problem
!	!	!LO:TX:t=P:problem:mixed beam	!	!	!	!	!	!	!	!	!	!	!	!	!	!	!	!	!	!	!	!	!	!	!	!	!	!	!	!	!	!	!	!	!
8F\	.	16FF/LL	.	16G\	.	.	16B-\	.	16c/	.	16e/	-dzi-	.	(>4.cc\	na-	.	16G/LL 16c/	.	16B-/LL 16e/	.	(<4.cc\	.	(>4.ccc\	.	2.F\ 2.c\	.	2.c/ 2.g/	.	2.b-/	2.e\	.	(<4.cc\	.	(>4.ccc\	.
.	.	16F\	.	16G\	.	.	16B-\	.	16c/	.	16e/	-nę	.	.	.	.	16G/ 16c/	.	16B-/ 16e/	.	.	.	.	.	.	.	.	.	.	.	.	.	.	.	.
8r	.	16F\	.	16G\	.	.	16B-\	.	16c/	.	16e/	śmier-	.	.	.	.	16G/ 16c/	.	16B-/ 16e/	.	.	.	.	.	.	.	.	.	.	.	.	.	.	.	.
.	.	16F\JJ	.	16G\	.	.	16B-\	.	16c/	.	16e/	-ci	.	.	.	.	16G/JJ 16c/	.	16B-/JJ 16e/	.	.	.	.	.	.	.	.	.	.	.	.	.	.	.	.
*	*	*tremolo	*	*	*	*	*	*	*	*	*	*	*	*	*	*	*	*	*	*	*	*	*	*	*	*	*	*	*	*	*	*	*	*	*
4FF/	.	16F\LL	.	16G\	.	.	16B-\	.	16c/	.	16e/	na-	.	.	.	.	16G/LL 16c/	.	16B-/LL 16e/	.	.	.	.	.	.	.	.	.	.	.	.	.	.	.	.
.	.	16F\	.	16G\	.	.	16B-\	.	16c/	.	16e/	-szej	.	.	.	.	16G/ 16c/	.	16B-/ 16e/	.	.	.	.	.	.	.	.	.	.	.	.	.	.	.	.
.	.	16F\	.	16G\	.	.	16B-\	.	16c/	.	16e/	śmier-	.	8b-\)	.	.	16G/ 16c/	.	16B-/ 16e/	.	8b-/L	.	8bb-\L	.	.	.	.	.	.	.	.	8b-/L	.	8bb-\L	.
.	.	16F\JJ	.	16G\	.	.	16B-\	.	16c/	.	16e/	-ci	.	.	.	.	16G/JJ 16c/	.	16B-/JJ 16e/	.	.	.	.	.	.	.	.	.	.	.	.	.	.	.	.
4r	.	16F\LL	.	16G\	.	.	16B-\	.	16c/	.	16e/	na-	.	8g/	-mi	.	16G/LL 16c/	.	16B-/LL 16e/	.	8g/	.	8gg\	.	.	.	.	.	.	.	.	8g/	.	8gg\	.
.	.	16F\	.	16G\	.	.	16B-\	.	16c/	.	16e/	-szej	.	.	.	.	16G/ 16c/	.	16B-/ 16e/	.	.	.	.	.	.	.	.	.	.	.	.	.	.	.	.
.	.	16F\	.	16G\	.	.	16B-\	.	8c/	.	8e/	a-	.	8dd\	grze-	.	16G/ 16c/	.	16B-/ 16e/	.	8dd/J)	.	8ddd\J)	.	.	.	.	.	.	.	.	8dd/J)	.	8ddd\J)	.
.	.	16F\JJ	.	16G\	.	.	16B-\	.	.	.	.	.	.	.	.	.	16G/JJ 16c/	.	16B-/JJ 16e/	.	.	.	.	.	.	.	.	.	.	.	.	.	.	.	.
*	*	*Xtremolo	*	*	*	*	*	*	*	*	*	*	*	*	*	*	*	*	*	*	*	*	*	*	*	*	*	*	*	*	*	*	*	*	*
!!LO:PB:g=original
=42	=42	=42	=42	=42	=42	=42	=42	=42	=42	=42	=42	=42	=42	=42	=42	=42	=42	=42	=42	=42	=42	=42	=42	=42	=42	=42	=42	=42	=42	=42	=42	=42	=42	=42	=42
*	*	*	*	*	*	*	*	*	*	*	*	*	*	*	*	*	*	*	*	*	*	*	*	*	*	*	*^	*	*	*	*	*	*	*	*
!!mixed beam:problem
!	!	!LO:TX:t=P:problem:mixed beam	!	!	!	!	!	!	!	!	!	!	!	!	!	!	!	!	!	!	!	!	!	!	!	!	!	!	!	!	!	!	!	!	!	!
8F\	.	16FF/LL	.	8F\	.	.	8A\	.	8c/	.	8f/	-men.	.	(>4cc\	-szne-	.	(16F'</LL 16c/	.	(16A'>/LL 16f/	.	(>4cc\	.	(>4ccc\	.	4.F\ 4.c\	.	4.A/ 4.f/	4.ryy	.	4.a/	4.f\	.	(>4cc\	.	(>4ccc\	.
.	.	16F\	.	.	.	.	.	.	.	.	.	.	.	.	.	.	16F'</ 16c/	.	16A'>/ 16f/	.	.	.	.	.	.	.	.	.	.	.	.	.	.	.	.	.
8r	.	16F\	.	8r	.	.	8r	.	8r	.	8r	.	.	.	.	.	16F'</ 16c/	.	16A'>/ 16f/	.	.	.	.	.	.	.	.	.	.	.	.	.	.	.	.	.
.	.	16F\JJ	.	.	.	.	.	.	.	.	.	.	.	.	.	.	16F'</JJ) 16c/	.	16A'>/JJ) 16f/	.	.	.	.	.	.	.	.	.	.	.	.	.	.	.	.	.
*	*	*tremolo	*	*	*	*	*	*	*	*	*	*	*	*	*	*	*rep	*	*rep	*	*	*	*	*	*	*	*	*	*	*	*	*	*	*	*	*
4FF/	.	16F\LL	.	16F\	.	.	16A\	.	16c/	.	16f/	Świę-	.	8a/)	-mi	.	(16F'</LL 16c/	.	(16A'>/LL 16f/	.	8a/)	.	8aa\)	.	.	.	.	.	.	.	.	.	8a/)	.	8aa\)	.
.	.	16F\	.	16F\	.	.	16A\	.	16c/	.	16f/	-ta	.	.	.	.	16F'</ 16c/	.	16A'>/ 16f/	.	.	.	.	.	.	.	.	.	.	.	.	.	.	.	.	.
.	.	16F\	.	16F\	.	.	16A\	.	16c/	.	16f/	Ma-	.	16r	.	.	16F'</ 16c/	.	16A'>/ 16f/	.	16r	.	16r	.	8r	.	16r	8r	.	8r	8ryy	.	16r	.	16r	.
.	.	16F\JJ	.	16F\	.	.	16A\	.	16c/	.	16f/	-rja	.	(>16a\KL	te-	.	16F'</JJ) 16c/	.	16A'>/JJ) 16f/	.	(>16a\KL	.	(>16aa\KL	.	.	.	(<16A/KL	.	.	.	.	.	(>16a\KL	.	(>16aa\KL	.
*	*	*	*	*	*	*	*	*	*	*	*	*	*	*	*	*	*Xrep	*	*Xrep	*	*	*	*	*	*	*	*	*	*	*	*	*	*	*	*	*
*	*	*	*	*	*	*	*	*	*	*	*	*	*	*	*	*	*rep	*	*rep	*	*	*	*	*	*	*	*	*	*	*	*	*	*	*	*	*
4r	.	16F\LL	.	16F\	.	.	16A\	.	16c/	.	16f/	ma-	.	8.cc\J)	.	.	(16F'</LL 16c/	.	(16A'>/LL 16f	.	8.cc\)	.	8.ccc\)	.	4r	.	8.c/)	4r	.	4r	4ryy	.	8.cc\)	.	8.ccc\)	.
.	.	16F\	.	16F\	.	.	16A\	.	16c/	.	16f/	-tko	.	.	.	.	16F'</ 16c/	.	16A'>/ 16f/	.	.	.	.	.	.	.	.	.	.	.	.	.	.	.	.	.
.	.	16F\	.	16F\	.	.	16A\	.	16c/	.	16f/	Bo-	.	.	.	.	16F'</ 16c/	.	16A'>/ 16f/	.	.	.	.	.	.	.	.	.	.	.	.	.	.	.	.	.
!	!	!	!	!	!	!	!	!	!	!	!	!	!	!LO:TX:a:t=|:problem	!	!	!	!	!	!	!LO:TX:a:t=|:problem	!	!LO:TX:a:t=|:problem	!	!	!	!LO:TX:b:t=|:problem	!	!	!	!	!	!LO:TX:a:t=|:problem	!	!LO:TX:a:t=|:problem	!
.	.	16F\JJ	.	16F\	.	.	16A\	.	16c/	.	16f/	-ża	.	16ff\	-raz	.	16F'</JJ) 16c/	.	16A'>/JJ) 16f/	.	16ff\Jk	.	16fff\Jk	.	.	.	16f/Jk	.	.	.	.	.	16ff\Jk	.	16fff\Jk	.
*	*	*Xtremolo	*	*	*	*	*	*	*	*	*	*	*	*	*	*	*Xrep	*	*Xrep	*	*	*	*	*	*	*	*	*	*	*	*	*	*	*	*	*
*	*	*	*	*	*	*	*	*	*	*	*	*	*	*	*	*	*	*	*	*	*	*	*	*	*	*	*	*	*	*v	*v	*	*	*	*	*
=43	=43	=43	=43	=43	=43	=43	=43	=43	=43	=43	=43	=43	=43	=43	=43	=43	=43	=43	=43	=43	=43	=43	=43	=43	=43	=43	=43	=43	=43	=43	=43	=43	=43	=43	=43
!!mixed beam:problem
!	!	!LO:TX:t=P:problem:mixed beam	!	!	!	!	!	!	!	!	!	!	!	!	!	!	!	!	!	!	!	!	!	!	!	!	!	!	!	!	!	!	!	!	!
8F\	.	16FF/LL	.	16F\	.	.	16A\	.	16c/	.	16f/	módl	.	4cc\	i	.	(16F'</LL 16c/	.	(16A'>/LL 16f/	.	(>4cc\	.	(>4ccc\	.	4.F\ 4.c\	.	(>4c/	2.re	.	(<4fT>/ 4a/	.	(>4cc\	.	(>4ccc\	.
.	.	16F\	.	16F\	.	.	16A\	.	16c/	.	16f/	się	.	.	.	.	16F'</ 16c/	.	16A'>/ 16f/	.	.	.	.	.	.	.	.	.	.	.	.	.	.	.	.
8r	.	16F\	.	16F\	.	.	16A\	.	16c/	.	16f/	za	.	.	.	.	16F'</ 16c/	.	16A'>/ 16f/	.	.	.	.	.	.	.	.	.	.	.	.	.	.	.	.
.	.	16F\JJ	.	16F\	.	.	16A\	.	16c/	.	16f/	na-	.	.	.	.	16F'</JJ) 16c/	.	16A'>/JJ) 16f/	.	.	.	.	.	.	.	.	.	.	.	.	.	.	.	.
.	.	.	.	.	.	.	.	.	.	.	.	.	.	.	.	.	.	.	.	.	.	.	.	.	.	.	.	.	.	16qqe/LL 16qqg#X/	.	.	.	.	.
.	.	.	.	.	.	.	.	.	.	.	.	.	.	.	.	.	.	.	.	.	.	.	.	.	.	.	.	.	.	16qqf/JJ 16qqa/	.	.	.	.	.
*	*	*tremolo	*	*	*	*	*	*	*	*	*	*	*	*	*	*	*rep	*	*rep	*	*	*	*	*	*	*	*	*	*	*	*	*	*	*	*
4FF/	.	16F\LL	.	16F\	.	.	16A\	.	16c/	.	16f/	-mi	.	8.a/	w go-	.	(16F'</LL 16c/	.	(16A'>/LL 16f/	.	8a/)	.	8aa\)	.	.	.	8A/)	.	.	8a/) 8cc/	.	8a/)	.	8aa\)	.
.	.	16F\	.	16F\	.	.	16A\	.	16c/	.	16f/	grze-	.	.	.	.	16F'</ 16c/	.	16A'>/ 16f	.	.	.	.	.	.	.	.	.	.	.	.	.	.	.	.
.	.	16F\	.	16F\	.	.	16A\	.	16c/	.	16f/	-szne-	.	.	.	.	16F'</ 16c/	.	16A'>/ 16f	.	16r	.	16r	.	8r	.	16r	.	.	8r	.	16r	.	16r	.
.	.	16F\JJ	.	16F\	.	.	16A\	.	16c/	.	16f/	-mi	.	(<16a/KL	-dzi-	.	16F'</JJ) 16c/	.	16A'>/JJ) 16f/	.	(>16a\KL	.	(>16aa\KL	.	.	.	(>16A/KL	.	.	.	.	(>16a\KL	.	(>16aa\KL	.
*	*	*	*	*	*	*	*	*	*	*	*	*	*	*	*	*	*Xrep	*	*Xrep	*	*	*	*	*	*	*	*	*	*	*	*	*	*	*	*
*	*	*	*	*	*	*	*	*	*	*	*	*	*	*	*	*	*rep	*	*rep	*	*	*	*	*	*	*	*	*	*	*	*	*	*	*	*
4r	.	16F\LL	.	16F\	.	.	16A\	.	16c/	.	16f/	te-	.	8.cc/J)	.	.	(16F'</LL 16c/	.	(16A'>/LL 16f/	.	8.cc\)	.	8.ccc\)	.	4r	.	8.c/)	.	.	4r	.	8.cc\)	.	8.ccc\)	.
.	.	16F\	.	16F\	.	.	16A\	.	16c/	.	16f/	-raz	.	.	.	.	16F'</ 16c/	.	16A'>/ 16f/	.	.	.	.	.	.	.	.	.	.	.	.	.	.	.	.
.	.	16F\	.	16F\	.	.	16A\	.	16c/	.	16f/	i	.	.	.	.	16F'</ 16c/	.	16A'>/ 16f/	.	.	.	.	.	.	.	.	.	.	.	.	.	.	.	.
!	!	!	!	!	!	!	!	!	!	!	!	!	!	!	!	!	!	!	!	!	!LO:TX:a:t=|:problem	!	!LO:TX:a:t=|:problem	!	!	!	!LO:TX:a:t=|:problem	!	!	!	!	!LO:TX:a:t=|:problem	!	!LO:TX:a:t=|:problem	!
.	.	16F\JJ	.	16F\	.	.	16A\	.	16c/	.	16f/	w go-	.	16ff\	-nę	.	16F'</JJ) 16c/	.	16A'>/JJ) 16f/	.	16ff\Jk	.	16fff\Jk	.	.	.	16f/Jk	.	.	.	.	16ff\Jk	.	16fff\Jk	.
*	*	*Xtremolo	*	*	*	*	*	*	*	*	*	*	*	*	*	*	*Xrep	*	*Xrep	*	*	*	*	*	*	*	*	*	*	*	*	*	*	*	*
!!LO:PB:g=original
=44	=44	=44	=44	=44	=44	=44	=44	=44	=44	=44	=44	=44	=44	=44	=44	=44	=44	=44	=44	=44	=44	=44	=44	=44	=44	=44	=44	=44	=44	=44	=44	=44	=44	=44	=44
*	*	*	*	*	*	*	*	*	*	*	*	*	*	*	*	*	*tremolo	*	*tremolo	*	*	*	*	*	*	*	*	*	*	*	*	*	*	*	*
!!mixed beam:problem
!	!	!LO:TX:t=P:problem:mixed beam	!	!	!	!	!	!	!	!	!	!	!	!	!	!	!	!	!	!	!	!	!	!	!	!	!	!	!	!	!	!	!	!	!
8F\	.	16FF/LL	.	16F\	.	.	16A\	.	16c/	.	16f/	-dzi-	.	4cc\	śmier-	.	(<16F'</LL 16c/	.	(>16A'>/LL 16f/	.	4cc\	.	(>4ccc\	.	4.F\ 4.c	.	(>4c/	2.re	.	(>4fT>/ 4a	.	(>4cc\	.	(>4ccc\	.
.	.	16F\	.	16F\	.	.	16A\	.	16c/	.	16f/	-nę	.	.	.	.	16F'</ 16c/	.	16A'>/ 16f/	.	.	.	.	.	.	.	.	.	.	.	.	.	.	.	.
8r	.	16F\	.	16F\	.	.	16A\	.	16c/	.	16f/	śmier-	.	.	.	.	16F'</ 16c/	.	16A'>/ 16f/	.	.	.	.	.	.	.	.	.	.	.	.	.	.	.	.
.	.	16F\JJ	.	16F\	.	.	16A\	.	16c/	.	16f/	-ci	.	.	.	.	16F'</JJ) 16c/	.	16A'>/JJ) 16f/	.	.	.	.	.	.	.	.	.	.	.	.	.	.	.	.
.	.	.	.	.	.	.	.	.	.	.	.	.	.	.	.	.	.	.	.	.	.	.	.	.	.	.	.	.	.	16qqe/LL 16qqg#X/	.	.	.	.	.
.	.	.	.	.	.	.	.	.	.	.	.	.	.	.	.	.	.	.	.	.	.	.	.	.	.	.	.	.	.	16qqf/JJ 16qqa/	.	.	.	.	.
*	*	*tremolo	*	*	*	*	*	*	*	*	*	*	*	*	*	*	*rep	*	*rep	*	*	*	*	*	*	*	*	*	*	*	*	*	*	*	*
4FF/	.	16F\LL	.	16F\	.	.	16A\	.	16c/	.	16f/	na-	.	8a/	-ci	.	(<16F'</LL 16c/	.	(>16A'>/LL 16f/	.	8a/	.	8aa\)	.	.	.	8A/)	.	.	8a\ 8cc)\	.	8a/)	.	8aa\)	.
.	.	16F\	.	16F\	.	.	16A\	.	16c/	.	16f/	-szej	.	.	.	.	16F'</ 16c/	.	16A'>/ 16f/	.	.	.	.	.	.	.	.	.	.	.	.	.	.	.	.
.	.	16F\	.	16F\	.	.	16A\	.	16c/	.	16f/	a-	.	16r	.	.	16F'</ 16c/	.	16A'>/ 16f/	.	16r	.	16r	.	8r	.	16r	.	.	8r	.	16r	.	16r	.
.	.	16F\JJ	.	16F\	.	.	16A\	.	16c/	.	16f/	-men,	.	(>16a\KL	na-	.	16F'</JJ) 16c/	.	16A'>/JJ) 16f/	.	(>16a\KL	.	(>16aa\KL	.	.	.	(>16A/KL	.	.	.	.	(>16a\KL	.	(>16aa\KL	.
*	*	*	*	*	*	*	*	*	*	*	*	*	*	*	*	*	*Xrep	*	*Xrep	*	*	*	*	*	*	*	*	*	*	*	*	*	*	*	*
*	*	*	*	*	*	*	*	*	*	*	*	*	*	*	*	*	*rep	*	*rep	*	*	*	*	*	*	*	*	*	*	*	*	*	*	*	*
4r	.	16F\LL	.	16F\	.	.	16A\	.	16c/	.	16f/	te-	.	8.cc\J)	.	.	(<16F'</LL 16c/	.	(>16A'>/LL 16f/	.	8.cc\)	.	8.ccc\)	.	4r	.	8.c/)	.	.	4r	.	8.cc\)	.	8.ccc\)	.
.	.	16F\	.	16F\	.	.	16A\	.	16c/	.	16f/	-raz	.	.	.	.	16F'</ 16c/	.	16A'>/ 16f/	.	.	.	.	.	.	.	.	.	.	.	.	.	.	.	.
.	.	16F\	.	16F\	.	.	16A\	.	16c/	.	16f/	i	.	.	.	.	16F'</ 16c/	.	16A'>/ 16f/	.	.	.	.	.	.	.	.	.	.	.	.	.	.	.	.
!	!	!	!	!	!	!	!	!	!	!	!	!	!	!	!	!	!	!	!	!	!	!	!LO:TX:a:t=|:problem	!	!	!	!	!	!	!	!	!LO:TX:a:t=|:problem	!	!LO:TX:a:t=|:problem	!
.	.	16F\JJ	.	16F\	.	.	16A\	.	16c/	.	16f/	w go-	.	16ff\	-szej	.	16F'</JJ) 16c/	.	16A'>/JJ) 16f/	.	16ff\Jk'>	.	16fff\Jk	.	.	.	16f'>/Jk	.	.	.	.	16ff\Jk	.	16fff\Jk	.
*	*	*Xtremolo	*	*	*	*	*	*	*	*	*	*	*	*	*	*	*Xrep	*	*Xrep	*	*	*	*	*	*	*	*	*	*	*	*	*	*	*	*
*	*	*	*	*	*	*	*	*	*	*	*	*	*	*	*	*	*	*	*	*	*	*	*	*	*	*	*v	*v	*	*	*	*	*	*	*
=45	=45	=45	=45	=45	=45	=45	=45	=45	=45	=45	=45	=45	=45	=45	=45	=45	=45	=45	=45	=45	=45	=45	=45	=45	=45	=45	=45	=45	=45	=45	=45	=45	=45	=45
!!mixed beam:problem
!	!	!LO:TX:t=P:problem:mixed beam	!	!	!	!	!	!	!	!	!	!	!	!	!	!	!	!	!	!	!	!	!	!	!LO:TX:t=P:problem:brak początku ligatur	!	!	!LO:DY:rj	!	!	!	!	!	!
8F\	.	16FF/LL	.	16G\	.	.	16B-\	.	16c/	.	16e/	-dzi-	.	(>4.cc\	a-	.	(<16G'</LL 16c/	.	(>16B-'>/LL 16e/	.	(>4.cc\	.	(>4.ccc\	.	[<2.F\ [>2.c\	.	2.c/ 2.g	p	2.e/ 2.b-	.	(>4.cc\	.	(>4.ccc\	.
.	.	16F\	.	16G\	.	.	16B-\	.	16c/	.	16e/	-nę	.	.	.	.	16G'</ 16c/	.	16B-'>/ 16e/	.	.	.	.	.	.	.	.	.	.	.	.	.	.	.
8r	.	16F\	.	16G\	.	.	16B-\	.	16c/	.	16e/	śmier-	.	.	.	.	16G'</ 16c/	.	16B-'>/ 16e/	.	.	.	.	.	.	.	.	.	.	.	.	.	.	.
.	.	16F\JJ	.	16G\	.	.	16B-\	.	16c/	.	16e/	-ci	.	.	.	.	16G'</JJ) 16c/	.	16B-'>/JJ) 16e/	.	.	.	.	.	.	.	.	.	.	.	.	.	.	.
*	*	*tremolo	*	*	*	*	*	*	*	*	*	*	*	*	*	*	*rep	*	*rep	*	*	*	*	*	*	*	*	*	*	*	*	*	*	*
4FF/	.	16F\LL	.	16G\	.	.	16B-\	.	16c/	.	16e/	na-	.	.	.	.	(<16G'</LL 16c/	.	(16B-'>/LL 16e/	.	.	.	.	.	.	.	.	.	.	.	.	.	.	.
.	.	16F\	.	16G\	.	.	16B-\	.	16c/	.	16e/	-szej	.	.	.	.	16G'</ 16c/	.	16B-'>/ 16e/	.	.	.	.	.	.	.	.	.	.	.	.	.	.	.
.	.	16F\	.	16G\	.	.	16B-\	.	16c/	.	16e/	śmier-	.	8b-/L	.	.	16G'</ 16c/	.	16B-'>/ 16e/	.	8b-/L	.	8bb-\L	.	.	.	.	.	.	.	8b-/L	.	8bb-\L	.
.	.	16F\JJ	.	16G\	.	.	16B-\	.	16c/	.	16e/	-ci	.	.	.	.	16G'</JJ) 16c/	.	16B-'>/JJ) 16e	.	.	.	.	.	.	.	.	.	.	.	.	.	.	.
*	*	*	*	*	*	*	*	*	*	*	*	*	*	*	*	*	*Xrep	*	*Xrep	*	*	*	*	*	*	*	*	*	*	*	*	*	*	*
*	*	*	*	*	*	*	*	*	*	*	*	*	*	*	*	*	*rep	*	*rep	*	*	*	*	*	*	*	*	*	*	*	*	*	*	*
4r	.	16F\LL	.	16G\	.	.	16B-\	.	16c/	.	16e/	na-	.	8g/	.	.	(<16G'</LL 16c/	.	(>16B-'>/LL 16e	.	8g/	.	8gg\	.	.	.	.	.	.	.	8g/	.	8gg\	.
.	.	16F\	.	16G\	.	.	16B-\	.	16c/	.	16e/	-szej	.	.	.	.	16G'</ 16c/	.	16B-'>/ 16e	.	.	.	.	.	.	.	.	.	.	.	.	.	.	.
.	.	16F\	.	8G\	.	.	8B-\	.	8c/	.	8e/	a-	.	8cc/J)	.	.	16G'</ 16c/	.	16B-'>/ 16e	.	8cc/J)	.	8ccc\J)	.	.	.	.	.	.	.	8cc/J)	.	8ccc\J)	.
.	.	16F\JJ	.	.	.	.	.	.	.	.	.	.	.	.	.	.	16G'</JJ) 16c/	.	16B-'>/JJ) 16e	.	.	.	.	.	.	.	.	.	.	.	.	.	.	.
*	*	*Xtremolo	*	*	*	*	*	*	*	*	*	*	*	*	*	*	*Xrep	*	*Xrep	*	*	*	*	*	*	*	*	*	*	*	*	*	*	*
*	*	*	*	*	*	*	*	*	*	*	*	*	*	*	*	*	*Xtremolo	*	*Xtremolo	*	*	*	*	*	*	*	*	*	*	*	*	*	*	*
!!LO:PB:g=original
=46	=46	=46	=46	=46	=46	=46	=46	=46	=46	=46	=46	=46	=46	=46	=46	=46	=46	=46	=46	=46	=46	=46	=46	=46	=46	=46	=46	=46	=46	=46	=46	=46	=46	=46
*	*	*	*	*	*	*	*	*	*	*	*	*	*	*	*	*	*	*	*	*	*	*	*	*	*	*	*	*	*^	*	*	*	*	*
!	!	!	!	!	!	!	!	!	!	!	!	!	!	!	!	!	!	!	!	!	!	!	!	!	!LO:TX:t=P:problem:brak zakończenia dolnej ligatury	!	!	!	!	!	!	!	!	!	!
4FF/	.	4FF/yy	.	4F\	men,	.	4A\	.	4c/	.	4f/	-men,	.	4f/	-men,	.	4F/ 4c	.	4A/ 4f	.	4f/	.	4ff\	.	4F\] 4c]\	.	4A/ 4f/	.	4a/	4f\	.	4f/	.	4ff\	.
4F\	.	4F\yy	.	4r	.	.	4r	.	4r	.	4r	.	.	4r	.	.	4r	.	4r	.	4r	.	4r	.	4r	.	4r	.	4r	4ryy	.	4r	.	4r	.
4r	.	4ryy	.	4r	.	.	4r	.	4r	.	4r	.	.	4r	.	.	4r	.	4r	.	4r	.	4r	.	4r	.	4r	.	4r	4ryy	.	4r	.	4r	.
=47	=47	=47	=47	=47	=47	=47	=47	=47	=47	=47	=47	=47	=47	=47	=47	=47	=47	=47	=47	=47	=47	=47	=47	=47	=47	=47	=47	=47	=47	=47	=47	=47	=47	=47	=47
*	*	*	*	*	*	*	*	*	*	*	*	*	*	*	*	*	*2\right	*	*2\right	*	*2\right	*	*2\right	*	*2\right	*	*	*	*	*	*	*2\right	*	*2\right	*
!	!	!	!	!	!	!LO:HP:b	!	!	!	!	!	!	!	!	!	!	!	!	!	!	!	!	!	!	!	!	!	!	!	!	!	!	!	!	!
2D-X/	<	2D-X/yy	<	4D-X/	módl	<	4B-\	.	4f/	<	4b-\	módl	.	4b-\	módl	.	2B-\ 2f	<	2b-\	.	2b-\	.	2b-\	<	2D-X\ 2d-X\	.	2F/ 2f/	<	2ff/	2b-\	<	2ff\	<	2bb-\	<
.	.	.	.	4D-/	się	.	4B-\	.	4f/	.	4b-\	się	.	4b-\	się	.	.	.	.	.	.	.	.	.	.	.	.	.	.	.	.	.	.	.	.
4BB-/	[[	4BB-/yy	[[	4BB-/	za	[[	4B-\	.	4f/	[[	4dd-X\	za	.	4dd-X\	za	.	4B-\ 4f	[[	4f/ 4dd-X	.	4dd-X\	.	4dd-X\	[[	4BB-\ 4B-\	.	4F/ 4f/	[[	4ff/	4dd-X\	.	4bb-\	[[	4ddd-X\	[[
=48	=48	=48	=48	=48	=48	=48	=48	=48	=48	=48	=48	=48	=48	=48	=48	=48	=48	=48	=48	=48	=48	=48	=48	=48	=48	=48	=48	=48	=48	=48	=48	=48	=48	=48	=48
*tremolo	*	*tremolo	*	*	*	*	*	*	*	*	*	*	*	*	*	*	*	*	*	*	*	*	*	*	*	*	*	*	*	*	*	*	*	*	*
*2\right	*	*2\right	*	*2\right	*	*	*2\right	*	*	*	*2\right	*	*	*2\right	*	*	*tremolo	*	*tremolo	*	*tremolo	*	*tremolo	*	*	*	*	*	*	*	*	*	*	*	*
!	!LO:DY:rj	!	!	!	!	!LO:DY:a:rj	!	!	!	!LO:DY:b:rj	!	!	!LO:DY:b:rj	!	!	!LO:DY:b:rj	!	!	!	!LO:DY:rj	!	!LO:DY:rj	!	!LO:DY:rj	!	!LO:DY:rj	!	!LO:DY:rj	!	!	!LO:DY:rj	!	!LO:DY:rj	!	!LO:DY:rj
32F\LLL	f	32F\LLLyy	f y	2.F\	na-	f	2.A\	.	2.f/	f	2.ff\	na-	f	2.cc\	na-	f	32A\LLL 32f\	.	32f\LLL 32cc\	f	32a\LLL 32ff\	f	32a\LLL 32ff\	f	[<2.FF/ [>2.F/	f	[<2.F/ [>2.f/	f	[>2.ff/	[>2.cc\	[ f	[>2.aa\	f	[>2.fff\	f
32F\	.	32F\yy	.	.	.	.	.	.	.	.	.	.	.	.	.	.	32A\ 32f\	.	32f\ 32cc\	.	32a\ 32ff\	.	32a\ 32ff\	.	.	.	.	.	.	.	.	.	.	.	.
32F\	.	32F\yy	.	.	.	.	.	.	.	.	.	.	.	.	.	.	32A\ 32f\	.	32f\ 32cc\	.	32a\ 32ff\	.	32a\ 32ff\	.	.	.	.	.	.	.	.	.	.	.	.
32F\	.	32F\yy	.	.	.	.	.	.	.	.	.	.	.	.	.	.	32A\ 32f\	.	32f\ 32cc\	.	32a\ 32ff\	.	32a\ 32ff\	.	.	.	.	.	.	.	.	.	.	.	.
32F\	.	32F\yy	.	.	.	.	.	.	.	.	.	.	.	.	.	.	32A\ 32f\	.	32f\ 32cc\	.	32a\ 32ff\	.	32a\ 32ff\	.	.	.	.	.	.	.	.	.	.	.	.
32F\	.	32F\yy	.	.	.	.	.	.	.	.	.	.	.	.	.	.	32A\ 32f\	.	32f\ 32cc\	.	32a\ 32ff\	.	32a\ 32ff\	.	.	.	.	.	.	.	.	.	.	.	.
32F\	.	32F\yy	.	.	.	.	.	.	.	.	.	.	.	.	.	.	32A\ 32f\	.	32f\ 32cc\	.	32a\ 32ff\	.	32a\ 32ff\	.	.	.	.	.	.	.	.	.	.	.	.
32F\	.	32F\yy	.	.	.	.	.	.	.	.	.	.	.	.	.	.	32A\ 32f\	.	32f\ 32cc\	.	32a\ 32ff\	.	32a\ 32ff\	.	.	.	.	.	.	.	.	.	.	.	.
32F\	.	32F\yy	.	.	.	.	.	.	.	.	.	.	.	.	.	.	32A\ 32f\	.	32f\ 32cc\	.	32a\ 32ff\	.	32a\ 32ff\	.	.	.	.	.	.	.	.	.	.	.	.
32F\	.	32F\yy	.	.	.	.	.	.	.	.	.	.	.	.	.	.	32A\ 32f\	.	32f\ 32cc\	.	32a\ 32ff\	.	32a\ 32ff\	.	.	.	.	.	.	.	.	.	.	.	.
32F\	.	32F\yy	.	.	.	.	.	.	.	.	.	.	.	.	.	.	32A\ 32f\	.	32f\ 32cc\	.	32a\ 32ff\	.	32a\ 32ff\	.	.	.	.	.	.	.	.	.	.	.	.
32F\	.	32F\yy	.	.	.	.	.	.	.	.	.	.	.	.	.	.	32A\ 32f\	.	32f\ 32cc\	.	32a\ 32ff\	.	32a\ 32ff\	.	.	.	.	.	.	.	.	.	.	.	.
32F\	.	32F\yy	.	.	.	.	.	.	.	.	.	.	.	.	.	.	32A\ 32f\	.	32f\ 32cc\	.	32a\ 32ff\	.	32a\ 32ff\	.	.	.	.	.	.	.	.	.	.	.	.
32F\	.	32F\yy	.	.	.	.	.	.	.	.	.	.	.	.	.	.	32A\ 32f\	.	32f\ 32cc\	.	32a\ 32ff\	.	32a\ 32ff\	.	.	.	.	.	.	.	.	.	.	.	.
32F\	.	32F\yy	.	.	.	.	.	.	.	.	.	.	.	.	.	.	32A\ 32f\	.	32f\ 32cc\	.	32a\ 32ff\	.	32a\ 32ff\	.	.	.	.	.	.	.	.	.	.	.	.
32F\	.	32F\yy	.	.	.	.	.	.	.	.	.	.	.	.	.	.	32A\ 32f\	.	32f\ 32cc\	.	32a\ 32ff\	.	32a\ 32ff\	.	.	.	.	.	.	.	.	.	.	.	.
32F\	.	32F\yy	.	.	.	.	.	.	.	.	.	.	.	.	.	.	32A\ 32f\	.	32f\ 32cc\	.	32a\ 32ff\	.	32a\ 32ff\	.	.	.	.	.	.	.	.	.	.	.	.
32F\	.	32F\yy	.	.	.	.	.	.	.	.	.	.	.	.	.	.	32A\ 32f\	.	32f\ 32cc\	.	32a\ 32ff\	.	32a\ 32ff\	.	.	.	.	.	.	.	.	.	.	.	.
32F\	.	32F\yy	.	.	.	.	.	.	.	.	.	.	.	.	.	.	32A\ 32f\	.	32f\ 32cc\	.	32a\ 32ff\	.	32a\ 32ff\	.	.	.	.	.	.	.	.	.	.	.	.
32F\	.	32F\yy	.	.	.	.	.	.	.	.	.	.	.	.	.	.	32A\ 32f\	.	32f\ 32cc\	.	32a\ 32ff\	.	32a\ 32ff\	.	.	.	.	.	.	.	.	.	.	.	.
32F\	.	32F\yy	.	.	.	.	.	.	.	.	.	.	.	.	.	.	32A\ 32f\	.	32f\ 32cc\	.	32a\ 32ff\	.	32a\ 32ff\	.	.	.	.	.	.	.	.	.	.	.	.
32F\	.	32F\yy	.	.	.	.	.	.	.	.	.	.	.	.	.	.	32A\ 32f\	.	32f\ 32cc\	.	32a\ 32ff\	.	32a\ 32ff\	.	.	.	.	.	.	.	.	.	.	.	.
32F\	.	32F\yy	.	.	.	.	.	.	.	.	.	.	.	.	.	.	32A\ 32f\	.	32f\ 32cc\	.	32a\ 32ff\	.	32a\ 32ff\	.	.	.	.	.	.	.	.	.	.	.	.
32F\JJJ	.	32F\JJJyy	.	.	.	.	.	.	.	.	.	.	.	.	.	.	32A\JJJ 32f\	.	32f\JJJ 32cc	.	32a\JJJ 32ff\	.	32a\JJJ 32ff	.	.	.	.	.	.	.	.	.	.	.	.
*Xtremolo	*	*Xtremolo	*	*	*	*	*	*	*	*	*	*	*	*	*	*	*Xtremolo	*	*Xtremolo	*	*Xtremolo	*	*Xtremolo	*	*	*	*	*	*	*	*	*	*	*	*
*	*	*	*	*	*	*	*	*	*	*	*	*	*	*	*	*	*	*	*	*	*	*	*	*	*	*	*	*	*v	*v	*	*	*	*	*
=49	=49	=49	=49	=49	=49	=49	=49	=49	=49	=49	=49	=49	=49	=49	=49	=49	=49	=49	=49	=49	=49	=49	=49	=49	=49	=49	=49	=49	=49	=49	=49	=49	=49	=49
*	*	*	*	*	*	*	*	*	*	*	*	*	*	*	*	*	*^	*	*	*	*	*	*	*	*	*	*	*	*	*	*	*	*	*
!!mixed beam:problem
!LO:TX:t=P:problem:mixed beam	!	!LO:TX:t=P:problem:mixed beam	!	!	!	!	!	!	!	!	!	!	!	!	!	!	!	!	!	!LO:TX:t=P:problem:mixed beam	!	!LO:TX:t=P:problem:mixed beam	!	!	!	!	!	!	!	!	!	!	!	!	!
8F'>\L	.	8F'>\Lyy	.	4F\	-mi.	.	4A\	.	4f/	.	4ff\	-mi.	.	4cc\	-mi.	.	8A\ 8f\	8ryy	.	8f\L 8cc\	.	8a\L 8ff\	.	(>16ff\LL	.	4FF/] 4F]/	.	4F/] 4f]/	.	4cc\] 4ff]\	.	4aa\]	.	4fff\]	.
.	.	.	.	.	.	.	.	.	.	.	.	.	.	.	.	.	.	.	.	.	.	.	.	16aa\)	.	.	.	.	.	.	.	.	.	.	.
!	!LO:DY:rj	!	!LO:DY:rj	!	!	!	!	!	!	!	!	!	!	!	!	!	!	!	!	!	!LO:DY:rj	!	!LO:DY:rj	!	!	!	!	!	!	!	!	!	!	!	!
8FF'</J	p	8FF'</Jyy	p y	.	.	.	.	.	.	.	.	.	.	.	.	.	8c/	8F\	.	8A/J	p	8c'</J	p	16ccc'>\	.	.	.	.	.	.	.	.	.	.	.
.	.	.	.	.	.	.	.	.	.	.	.	.	.	.	.	.	.	.	.	.	.	.	.	16fff'>\JJ	.	.	.	.	.	.	.	.	.	.	.
[>2F\	.	[>2F\yy	.	4r	.	.	4r	.	4r	.	4r	.	.	4r	.	.	2c/	(<4F\	.	(<2B-/	.	(<4d/	.	(>16ddd\LL	.	4r	.	4r	.	4r	.	4r	.	4r	.
.	.	.	.	.	.	.	.	.	.	.	.	.	.	.	.	.	.	.	.	.	.	.	.	16bb-\)	.	.	.	.	.	.	.	.	.	.	.
.	.	.	.	.	.	.	.	.	.	.	.	.	.	.	.	.	.	.	.	.	.	.	.	16ff'>\	.	.	.	.	.	.	.	.	.	.	.
.	.	.	.	.	.	.	.	.	.	.	.	.	.	.	.	.	.	.	.	.	.	.	.	16fff'>\JJ	.	.	.	.	.	.	.	.	.	.	.
.	.	.	.	4r	.	.	4r	.	4r	.	4r	.	.	4r	.	.	.	(>(<4G\)	.	.	.	4e/	.	(>16eee\LL	.	4r	.	4r	.	4r	.	4r	.	4r	.
.	.	.	.	.	.	.	.	.	.	.	.	.	.	.	.	.	.	.	.	.	.	.	.	16ccc\)	.	.	.	.	.	.	.	.	.	.	.
.	.	.	.	.	.	.	.	.	.	.	.	.	.	.	.	.	.	.	.	.	.	.	.	16bb-'>\	.	.	.	.	.	.	.	.	.	.	.
.	.	.	.	.	.	.	.	.	.	.	.	.	.	.	.	.	.	.	.	.	.	.	.	16gg'>\JJ	.	.	.	.	.	.	.	.	.	.	.
=50	=50	=50	=50	=50	=50	=50	=50	=50	=50	=50	=50	=50	=50	=50	=50	=50	=50	=50	=50	=50	=50	=50	=50	=50	=50	=50	=50	=50	=50	=50	=50	=50	=50	=50	=50
!!mixed beam:problem
!LO:TX:t=P:problem:mixed beam	!	!LO:TX:t=P:problem:mixed beam	!	!	!	!	!	!	!	!	!	!	!	!	!	!	!	!	!	!	!	!	!	!	!	!	!	!	!	!	!	!	!	!	!
8F\L]	.	8F\L]yy	.	2.r	.	.	2.r	.	2.r	.	2.r	.	.	2.r	.	.	8c/L	8F\L))	.	8A/L)	.	8f/L)	.	16ff\LL	.	2.r	.	2.r	.	2.r	.	2.r	.	2.r	.
.	.	.	.	.	.	.	.	.	.	.	.	.	.	.	.	.	.	.	.	.	.	.	.	16aa\	.	.	.	.	.	.	.	.	.	.	.
8FF/J'<	.	8FF/J'<yy	.	.	.	.	.	.	.	.	.	.	.	.	.	.	8c/J	8F\J	.	8A'</J	.	8c'</J	.	16ccc\	.	.	.	.	.	.	.	.	.	.	.
.	.	.	.	.	.	.	.	.	.	.	.	.	.	.	.	.	.	.	.	.	.	.	.	16fff\JJ	.	.	.	.	.	.	.	.	.	.	.
2F\	.	2F\yy	.	.	.	.	.	.	.	.	.	.	.	.	.	.	2c/	4F\	.	(<2B-/	.	(<4d/	.	16ddd\LL	.	.	.	.	.	.	.	.	.	.	.
.	.	.	.	.	.	.	.	.	.	.	.	.	.	.	.	.	.	.	.	.	.	.	.	16bb-\	.	.	.	.	.	.	.	.	.	.	.
.	.	.	.	.	.	.	.	.	.	.	.	.	.	.	.	.	.	.	.	.	.	.	.	16ff\	.	.	.	.	.	.	.	.	.	.	.
.	.	.	.	.	.	.	.	.	.	.	.	.	.	.	.	.	.	.	.	.	.	.	.	16fff\JJ	.	.	.	.	.	.	.	.	.	.	.
.	.	.	.	.	.	.	.	.	.	.	.	.	.	.	.	.	.	4G\	.	.	.	4e/)	.	16eee\LL	.	.	.	.	.	.	.	.	.	.	.
.	.	.	.	.	.	.	.	.	.	.	.	.	.	.	.	.	.	.	.	.	.	.	.	16ccc\	.	.	.	.	.	.	.	.	.	.	.
.	.	.	.	.	.	.	.	.	.	.	.	.	.	.	.	.	.	.	.	.	.	.	.	16bb-\	.	.	.	.	.	.	.	.	.	.	.
.	.	.	.	.	.	.	.	.	.	.	.	.	.	.	.	.	.	.	.	.	.	.	.	16gg\JJ	.	.	.	.	.	.	.	.	.	.	.
!	!	!	!	!	!	!	!	!	!	!	!	!	!	!	!	!	!	!	!	!	!	!	!	!	!	!LO:CL:ed	!	!	!	!	!	!	!	!	!
*	*	*	*	*	*	*	*	*	*	*	*	*	*	*	*	*	*	*	*	*	*	*	*	*	*	*clefC4	*	*	*	*	*	*	*	*	*
!!LO:PB:g=original
=51	=51	=51	=51	=51	=51	=51	=51	=51	=51	=51	=51	=51	=51	=51	=51	=51	=51	=51	=51	=51	=51	=51	=51	=51	=51	=51	=51	=51	=51	=51	=51	=51	=51	=51	=51
!	!	!	!	!	!	!	!	!	!	!	!	!	!	!	!	!	!	!	!	!LO:TX:t=P:problem:brak zakończenia łuku	!	!	!	!	!	!	!	!	!LO:DY:rj	!	!	!	!	!	!LO:DY:rj
2F\	.	2F\yy	.	2.r	.	.	2.r	.	2.r	.	2.r	.	.	2.r	.	.	2c/	2F\	.	2A/)	.	2f/	.	8.ff\L	.	2A\ 2f\	.	2F/ 2c/	p	8.f/L	.	2.r	.	8.ff\L	p
.	.	.	.	.	.	.	.	.	.	.	.	.	.	.	.	.	.	.	.	.	.	.	.	(>32cc\LL	.	.	.	.	.	32c/LL	.	.	.	(>32cc\LL	.
.	.	.	.	.	.	.	.	.	.	.	.	.	.	.	.	.	.	.	.	.	.	.	.	32aa\JJJ	.	.	.	.	.	32a/JJJ	.	.	.	32aa\JJJ)	.
.	.	.	.	.	.	.	.	.	.	.	.	.	.	.	.	.	.	.	.	.	.	.	.	8.ff\L)	.	.	.	.	.	8.f/L	.	.	.	8.ff\L	.
.	.	.	.	.	.	.	.	.	.	.	.	.	.	.	.	.	.	.	.	.	.	.	.	(>32cc\LL	.	.	.	.	.	32c/LL	.	.	.	(>32cc\LL	.
.	.	.	.	.	.	.	.	.	.	.	.	.	.	.	.	.	.	.	.	.	.	.	.	32aa\JJJ	.	.	.	.	.	32a/JJJ	.	.	.	32aa\JJJ	.
[>4F^<\	.	[>4F^<\yy	.	.	.	.	.	.	.	.	.	.	.	.	.	.	4c/	4G\	.	4B-/	.	(<4e^</	.	8.gg^<\L)	.	(>4B-\ (>4e\	.	[<4F/ [>4c/	.	8.g^</L	.	.	.	8.gg^<\L)	.
.	.	.	.	.	.	.	.	.	.	.	.	.	.	.	.	.	.	.	.	.	.	.	.	(>32cc\LL	.	.	.	.	.	32c/LL	.	.	.	(>32cc\LL	.
.	.	.	.	.	.	.	.	.	.	.	.	.	.	.	.	.	.	.	.	.	.	.	.	32ccc\JJJ	.	.	.	.	.	32cc/JJJ	.	.	.	32ccc\JJJ	.
=52	=52	=52	=52	=52	=52	=52	=52	=52	=52	=52	=52	=52	=52	=52	=52	=52	=52	=52	=52	=52	=52	=52	=52	=52	=52	=52	=52	=52	=52	=52	=52	=52	=52	=52	=52
2F\]	.	2F\]yy	.	2.r	.	.	2.r	.	2.r	.	2.r	.	.	2.r	.	.	2c/	2F\	.	2A/	.	2f/)	.	8.ff\L)	.	2A\) 2f)\	.	2F/] 2c]/	.	8.f/L	.	2.r	.	8.ff\L)	.
.	.	.	.	.	.	.	.	.	.	.	.	.	.	.	.	.	.	.	.	.	.	.	.	(>32cc\LL	.	.	.	.	.	32c/LL	.	.	.	(>32cc\LL	.
.	.	.	.	.	.	.	.	.	.	.	.	.	.	.	.	.	.	.	.	.	.	.	.	32aa\JJJ	.	.	.	.	.	32a/JJJ	.	.	.	32aa\JJJ)	.
.	.	.	.	.	.	.	.	.	.	.	.	.	.	.	.	.	.	.	.	.	.	.	.	8.ff\L)	.	.	.	.	.	8.f/L	.	.	.	8.ff\L	.
.	.	.	.	.	.	.	.	.	.	.	.	.	.	.	.	.	.	.	.	.	.	.	.	(>32cc\LL	.	.	.	.	.	32c/LL	.	.	.	(>32cc\LL	.
.	.	.	.	.	.	.	.	.	.	.	.	.	.	.	.	.	.	.	.	.	.	.	.	32aa\JJJ	.	.	.	.	.	32a/JJJ	.	.	.	32aa\JJJ	.
[>4F^<\	.	[>4F^<\yy	.	.	.	.	.	.	.	.	.	.	.	.	.	.	4c/	4G\	.	4B-/	.	(<4e^</	.	8.gg^<\L)	.	(>4B-\ (>4e	.	[<4F/ [>4c	.	8.g^</L	.	.	.	8.gg^<\L)	.
.	.	.	.	.	.	.	.	.	.	.	.	.	.	.	.	.	.	.	.	.	.	.	.	(>32cc\LL	.	.	.	.	.	32c/LL	.	.	.	(>32cc\LL	.
.	.	.	.	.	.	.	.	.	.	.	.	.	.	.	.	.	.	.	.	.	.	.	.	32ccc\JJJ	.	.	.	.	.	32cc/JJJ	.	.	.	32ccc\JJJ	.
=53	=53	=53	=53	=53	=53	=53	=53	=53	=53	=53	=53	=53	=53	=53	=53	=53	=53	=53	=53	=53	=53	=53	=53	=53	=53	=53	=53	=53	=53	=53	=53	=53	=53	=53	=53
!	!	!	!	!	!	!	!	!	!	!	!	!	!	!	!	!	!	!	!	!	!	!	!	!	!	!	!	!	!	!	!LO:DY:rj	!	!LO:DY:rj	!	!
2.F\_>	<[	2.F\_>yy	<[	2.r	.	.	2.r	.	2.r	.	2.r	.	.	2.r	.	.	[>2.c/	[<2.F\	.	[<2.A/ [>2.f/	.	(<4.f/)	.	(>(>4.ff\)	.	[>2.A\) [>2.f)\	.	2.F/_< 2.c_>	<[	2.f/ [>2.a	p < [[	[>2.ff\	p < [[	&(>4.ff\)	.
.	.	.	.	.	.	.	.	.	.	.	.	.	.	.	.	.	.	.	.	.	.	16e/LL	<	16ee\LL	.	.	.	.	.	.	.	.	.	(>16ee\LL	.
.	.	.	.	.	.	.	.	.	.	.	.	.	.	.	.	.	.	.	.	.	.	16f/JJ)	.	16ff\JJ	.	.	.	.	.	.	.	.	.	16ff\JJ	.
*	*	*	*	*	*	*	*	*	*	*	*	*	*	*	*	*	*	*	*	*	*	*Xtuplet	*	*Xtuplet	*	*	*	*	*	*	*	*	*	*	*
!	!	!	!	!	!	!	!	!	!	!	!	!	!	!	!	!	!	!	!	!	!	!	!	!	!	!	!	!	!	!	!	!	!	!LO:TUP:a	!
.	.	.	.	.	.	.	.	.	.	.	.	.	.	.	.	.	.	.	.	.	.	(>24a/LL	.	24aa\LL)	.	.	.	.	.	.	.	.	.	24aa\LL&)	.
.	.	.	.	.	.	.	.	.	.	.	.	.	.	.	.	.	.	.	.	.	.	24g#X/	.	24gg#X\	.	.	.	.	.	.	.	.	.	24gg#X\	.
.	.	.	.	.	.	.	.	.	.	.	.	.	.	.	.	.	.	.	.	.	.	24a/JJ	.	24aa\JJ	.	.	.	.	.	.	.	.	.	24aa\JJ	.
!	!	!	!	!	!	!	!	!	!	!	!	!	!	!	!	!	!	!	!	!	!	!	!	!	!	!	!	!	!	!	!	!	!	!LO:TUP:a	!
.	.	.	.	.	.	.	.	.	.	.	.	.	.	.	.	.	.	.	.	.	.	24cc/LL	.	24ccc\LL	.	.	.	.	.	.	.	.	.	24ccc\LL	.
.	.	.	.	.	.	.	.	.	.	.	.	.	.	.	.	.	.	.	.	.	.	24bn/	.	24bbn\	.	.	.	.	.	.	.	.	.	24bbn\	.
.	.	.	.	.	.	.	.	.	.	.	.	.	.	.	.	.	.	.	.	.	.	24cc/JJ	[[	24ccc\JJ)	.	.	.	.	.	.	.	.	.	24ccc\JJ	.
*	*	*	*	*	*	*	*	*	*	*	*	*	*	*	*	*	*v	*v	*	*	*	*	*	*	*	*	*	*	*	*	*	*	*	*	*
=54	=54	=54	=54	=54	=54	=54	=54	=54	=54	=54	=54	=54	=54	=54	=54	=54	=54	=54	=54	=54	=54	=54	=54	=54	=54	=54	=54	=54	=54	=54	=54	=54	=54	=54
8F\]	.	8F\]yy	.	2.r	.	.	2.r	.	2.r	.	2.r	.	.	2.r	.	.	8F/] 8c]/	.	8A/] 8f]/	.	8ff\)	.	8fff\	.	8A\] 8f]\	.	8F/] 8c]/	.	8f/ 8a]/	.	8ff\]	.	8fff\)	.
8r	.	8ryy	.	.	.	.	.	.	.	.	.	.	.	.	.	.	8r	.	8r	.	8r	.	8r	.	8r	.	8r	.	8r	.	8r	.	8r	.
!	!LO:DY:rj	!	!LO:DY:rj	!	!	!	!	!	!	!	!	!	!	!	!	!	!	!LO:DY:rj	!	!LO:DY:rj	!	!LO:DY:rj	!	!LO:DY:rj	!	!	!	!LO:DY:rj	!	!LO:DY:rj	!	!LO:DY:rj	!	!LO:DY:rj
4F\	f	4F\yy	f y	.	.	.	.	.	.	.	.	.	.	.	.	.	4F/ 4c/	f	4f/ 4cc/	f	4a\ 4ff\	f	4a\ 4fff\	f	4A\ 4f\	.	4F/ 4c/	f	4f/ 4a/	f	4ff\	f	4fff\	f
4r	.	4ryy	.	.	.	.	.	.	.	.	.	.	.	.	.	.	4r	.	4r	.	4r	.	4r	.	4r	.	4r	.	4r	.	4r	.	4r	.
==	==	==	==	==	==	==	==	==	==	==	==	==	==	==	==	==	==	==	==	==	==	==	==	==	==	==	==	==	==	==	==	==	==	==
*-	*-	*-	*-	*-	*-	*-	*-	*-	*-	*-	*-	*-	*-	*-	*-	*-	*-	*-	*-	*-	*-	*-	*-	*-	*-	*-	*-	*-	*-	*-	*-	*-	*-	*-
!!!system-decoration: s1,s2,s3,s4,s5[{s6,s7,s8}]s9,s10[{s11,s12,s13,s14}][{s15,s16}]
!!!ENC: Andrzej Gręziak
!!!END: 2021-08-12
!!!EED: Jędrzej Mróz
!!!ESR: 2021-10-14
!!!RDF**kern: > = above
!!!RDF**kern: < = below
!!!RDF**kern: @ = marked note, color=blue
!!!RDF**kern: j = marked note, color=red
